; generated by Slic3r 1.2.6 on 2015-05-11 at 23:46:46

; external perimeters extrusion width = 0.50mm
; perimeters extrusion width = 0.50mm
; infill extrusion width = 0.50mm
; solid infill extrusion width = 0.50mm
; top infill extrusion width = 0.50mm

M104 S190 ; set temperature
G28 ; home all axes
G1 Z15 F120 ; lift nozzle
M109 S190 ; wait for temperature to be reached
G21 ; set units to millimeters
G90 ; use absolute coordinates
M82 ; use absolute distances for extrusion
G92 E0
M106 S170.85
G1 E-2.00000 F1680.00000
G92 E0
G1 Z0.350 F12000.000
G1 X56.541 Y73.740 F12000.000
G1 E2.00000 F1680.00000
G1 X58.892 Y72.965 E2.06969 F1200.000
G1 X69.892 Y71.586 E2.38178
G1 X70.551 Y71.537 E2.40038
G1 X102.307 Y70.838 E3.29459
G1 X104.307 Y70.838 E3.35089
G1 X106.996 Y71.426 E3.42838
G1 X109.996 Y72.806 E3.52134 F1200.000
G1 X111.852 Y74.096 E3.58497
G1 X113.413 Y76.618 E3.66848
G1 X116.413 Y85.618 E3.93555
G1 X116.743 Y87.654 E3.99360
G1 X116.743 Y90.649 E4.07792
G1 X116.346 Y92.874 E4.14155
G1 X115.205 Y94.825 E4.20518
G1 X112.996 Y96.497 E4.28317
G1 X109.996 Y97.876 E4.37612
G1 X107.449 Y98.463 E4.44970
G1 X75.835 Y99.161 E5.33991
G1 X73.693 Y99.162 E5.40021
G1 X59.550 Y98.849 E5.79847
G1 X57.334 Y98.403 E5.86210
G1 X55.409 Y97.218 E5.92574
G1 X54.012 Y95.440 E5.98937
G1 X53.257 Y92.414 E6.07718
G1 X53.257 Y79.351 E6.44492
G1 X53.654 Y77.126 E6.50856
G1 X54.795 Y75.175 E6.57219
G1 X56.483 Y73.787 E6.63371
G1 E4.63371 F1680.00000
G92 E0
G1 X73.943 Y92.476 F12000.000
G1 E2.00000 F1680.00000
G1 X73.943 Y91.096 E2.03591 F720.000
G1 X61.443 Y91.096 E2.36127
G1 X61.443 Y92.164 E2.38906
G1 X59.943 Y92.164 E2.42810
G1 X59.943 Y87.534 E2.54863
G1 X61.443 Y87.534 E2.58768
G1 X61.443 Y88.601 E2.61547
G1 X73.943 Y88.601 E2.94083
G1 X73.943 Y87.222 E2.97674
G1 X75.443 Y87.222 E3.01578
G1 X75.443 Y88.601 E3.05169
G1 X78.443 Y88.601 E3.12977 F720.000
G1 X78.443 Y91.096 E3.19472
G1 X75.443 Y91.096 E3.27280
G1 X75.443 Y92.476 E3.30871
G1 X74.018 Y92.476 E3.34580
G1 X74.166 Y91.897 F12000.000
G1 X74.521 Y92.253 E3.35902 F1200.000
G1 X75.098 Y92.253 E3.37418
G1 X74.166 Y91.321 E3.40884
G1 X73.974 Y88.824 F12000.000
G1 X76.024 Y90.874 E3.48505 F1200.000
G1 X75.447 Y90.874 E3.50021
G1 X73.398 Y88.824 E3.57642
G1 X72.822 Y88.824 E3.59157
G1 X75.220 Y91.223 E3.68076
G1 X75.220 Y91.799 E3.69592
G1 X72.245 Y88.824 E3.80654
G1 X71.669 Y88.824 E3.82170
G1 X73.718 Y90.874 E3.89791
G1 X73.142 Y90.874 E3.91307
G1 X71.093 Y88.824 E3.98928
G1 X70.516 Y88.824 E4.00443
G1 X72.566 Y90.874 E4.08065
G1 X71.989 Y90.874 E4.09580
G1 X69.940 Y88.824 E4.17201
G1 X69.363 Y88.824 E4.18717
G1 X71.413 Y90.874 E4.26338
G1 X70.837 Y90.874 E4.27854
G1 X68.787 Y88.824 E4.35475
G1 X68.211 Y88.824 E4.36990
G1 X70.260 Y90.874 E4.44611
G1 X69.684 Y90.874 E4.46127
G1 X67.634 Y88.824 E4.53748
G1 X67.058 Y88.824 E4.55264
G1 X69.107 Y90.874 E4.62885
G1 X68.531 Y90.874 E4.64400
G1 X66.482 Y88.824 E4.72022
G1 X65.905 Y88.824 E4.73537
G1 X67.955 Y90.874 E4.81158
G1 X67.378 Y90.874 E4.82674
G1 X65.329 Y88.824 E4.90295
G1 X64.753 Y88.824 E4.91811
G1 X66.802 Y90.874 E4.99432
G1 X66.226 Y90.874 E5.00947
G1 X64.176 Y88.824 E5.08568
G1 X63.600 Y88.824 E5.10084
G1 X65.649 Y90.874 E5.17705
G1 X65.073 Y90.874 E5.19221
G1 X63.023 Y88.824 E5.26842
G1 X62.447 Y88.824 E5.28357
G1 X64.497 Y90.874 E5.35979
G1 X63.920 Y90.874 E5.37494
G1 X61.871 Y88.824 E5.45115
G1 X61.294 Y88.824 E5.46631
G1 X63.344 Y90.874 E5.54252
G1 X62.767 Y90.874 E5.55768
G1 X60.166 Y88.272 E5.65442
G1 X60.227 Y87.756 E5.66807
G1 X61.220 Y88.750 E5.70502
G1 X61.220 Y88.174 E5.72018
G1 X60.803 Y87.756 E5.73569
G1 X60.166 Y88.848 F12000.000
G1 X62.191 Y90.874 E5.81100 F1200.000
G1 X61.615 Y90.874 E5.82616
G1 X60.166 Y89.425 E5.88004
G1 X60.166 Y90.001 E5.89519
G1 X61.220 Y91.055 E5.93440
G1 X61.220 Y91.632 E5.94955
G1 X60.166 Y90.577 E5.98876
G1 X60.166 Y91.154 E6.00392
G1 X60.953 Y91.941 E6.03320
G1 X60.377 Y91.941 E6.04836
G1 X60.166 Y91.730 E6.05621
G1 E4.05621 F1680.00000
G92 E0
G1 X74.166 Y88.439 F12000.000
G1 E2.00000 F1680.00000
G1 X76.600 Y90.874 E2.09053 F1200.000
G1 X77.177 Y90.874 E2.10568
G1 X75.127 Y88.824 E2.18189
G1 X75.220 Y88.341 E2.19484
G1 X74.324 Y87.445 E2.22816
G1 X74.166 Y87.863 E2.23991
G1 X75.220 Y88.917 E2.27912
G1 X75.704 Y88.824 E2.29207
G1 X77.753 Y90.874 E2.36828
G1 X78.220 Y90.764 E2.38089
G1 X76.280 Y88.824 E2.45305
G1 X76.856 Y88.824 E2.46820
G1 X78.220 Y90.188 E2.51892
G1 X78.220 Y89.612 E2.53408
G1 X77.433 Y88.824 E2.56336
G1 X78.009 Y88.824 E2.57852
G1 X78.220 Y89.035 E2.58637
G1 E0.58637 F1680.00000
G92 E0
G1 X75.220 Y87.764 F12000.000
G1 E2.00000 F1680.00000
G1 X74.900 Y87.445 E2.01189 F1200.000
G1 E0.01189 F1680.00000
G92 E0
G1 X72.443 Y83.476 F12000.000
G1 E2.00000 F1680.00000
G1 X70.943 Y83.476 E2.03904 F720.000
G1 X70.943 Y82.096 E2.07495
G1 X59.943 Y82.096 E2.36127
G1 X59.943 Y79.601 E2.42621
G1 X70.943 Y79.601 E2.71253
G1 X70.943 Y78.222 E2.74844
G1 X72.443 Y78.222 E2.78748
G1 X72.443 Y79.601 E2.82338
G1 X75.443 Y79.601 E2.90147 F720.000
G1 X75.443 Y82.096 E2.96642
G1 X72.443 Y82.096 E3.04450
G1 X72.443 Y83.401 E3.07846
G1 X71.166 Y82.884 F12000.000
G1 X71.535 Y83.253 E3.09216 F1200.000
G1 X72.110 Y83.253 E3.10726
G1 X71.166 Y82.308 E3.14232
G1 X70.982 Y79.824 F12000.000
G1 X73.032 Y81.874 E3.21838 F1200.000
G1 X72.457 Y81.874 E3.23347
G1 X70.407 Y79.824 E3.30953
G1 X69.832 Y79.824 E3.32463
G1 X72.220 Y82.212 E3.41326
G1 X72.220 Y82.787 E3.42835
G1 X69.257 Y79.824 E3.53833
G1 X68.682 Y79.824 E3.55343
G1 X70.731 Y81.874 E3.62949
G1 X70.156 Y81.874 E3.64459
G1 X68.106 Y79.824 E3.72065
G1 X67.531 Y79.824 E3.73574
G1 X69.581 Y81.874 E3.81180
G1 X69.005 Y81.874 E3.82690
G1 X66.956 Y79.824 E3.90296
G1 X66.381 Y79.824 E3.91805
G1 X68.430 Y81.874 E3.99411
G1 X67.855 Y81.874 E4.00921
G1 X65.805 Y79.824 E4.08527
G1 X65.230 Y79.824 E4.10036
G1 X67.280 Y81.874 E4.17642
G1 X66.704 Y81.874 E4.19152
G1 X64.655 Y79.824 E4.26758
G1 X64.080 Y79.824 E4.28268
G1 X66.129 Y81.874 E4.35874
G1 X65.554 Y81.874 E4.37383
G1 X63.505 Y79.824 E4.44989
G1 X62.929 Y79.824 E4.46499
G1 X64.979 Y81.874 E4.54105
G1 X64.404 Y81.874 E4.55614
G1 X62.354 Y79.824 E4.63220
G1 X61.779 Y79.824 E4.64730
G1 X63.828 Y81.874 E4.72336
G1 X63.253 Y81.874 E4.73845
G1 X61.204 Y79.824 E4.81451
G1 X60.628 Y79.824 E4.82961
G1 X62.678 Y81.874 E4.90567
G1 X62.103 Y81.874 E4.92077
G1 X60.166 Y79.937 E4.99265
G1 X60.166 Y80.512 E5.00774
G1 X61.527 Y81.874 E5.05827
G1 X60.952 Y81.874 E5.07337
G1 X60.166 Y81.087 E5.10255
G1 X60.166 Y81.662 E5.11765
G1 X60.377 Y81.874 E5.12549
G1 X71.166 Y79.432 F12000.000
G1 X73.607 Y81.874 E5.21609 F1200.000
G1 X74.182 Y81.874 E5.23119
G1 X72.133 Y79.824 E5.30725
G1 X72.220 Y79.336 E5.32025
G1 X71.329 Y78.445 E5.35334
G1 X71.166 Y78.857 E5.36497
G1 X72.220 Y79.911 E5.40410
G1 X72.708 Y79.824 E5.41711
G1 X74.758 Y81.874 E5.49317
G1 X75.220 Y81.761 E5.50567
G1 X73.283 Y79.824 E5.57755
G1 X73.859 Y79.824 E5.59264
G1 X75.220 Y81.186 E5.64318
G1 X75.220 Y80.610 E5.65827
G1 X74.434 Y79.824 E5.68746
G1 X75.009 Y79.824 E5.70255
G1 X75.220 Y80.035 E5.71039
G1 E3.71039 F1680.00000
G92 E0
G1 X72.220 Y78.761 F12000.000
G1 E2.00000 F1680.00000
G1 X71.904 Y78.445 E2.01174 F1200.000
G1 E0.01174 F1680.00000
G92 E0
G1 X93.057 Y86.836 F12000.000
G1 E2.00000 F1680.00000
G1 X93.057 Y87.904 E2.02779 F720.000
G1 X105.557 Y87.904 E2.35315
G1 X105.557 Y86.524 E2.38906
G1 X107.057 Y86.524 E2.42810
G1 X107.057 Y87.904 E2.46401
G1 X110.057 Y87.904 E2.54210 F720.000
G1 X110.057 Y90.399 E2.60704
G1 X107.057 Y90.399 E2.68513
G1 X107.057 Y91.778 E2.72103
G1 X105.557 Y91.778 E2.76008
G1 X105.557 Y90.399 E2.79598
G1 X93.057 Y90.399 E3.12134
G1 X93.057 Y91.466 E3.14914
G1 X91.557 Y91.466 E3.18818
G1 X91.557 Y86.836 E3.30871
G1 X92.982 Y86.836 E3.34580
G1 X92.417 Y87.059 F12000.000
G1 X92.834 Y87.476 E3.36131 F1200.000
G1 X92.834 Y88.052 E3.37647
G1 X91.841 Y87.059 E3.41342
G1 X91.780 Y87.574 E3.42707
G1 X94.381 Y90.176 E3.52381
G1 X94.958 Y90.176 E3.53897
G1 X92.908 Y88.126 E3.61518
G1 X93.485 Y88.126 E3.63034
G1 X95.534 Y90.176 E3.70655
G1 X96.111 Y90.176 E3.72170
G1 X94.061 Y88.126 E3.79791
G1 X94.637 Y88.126 E3.81307
G1 X96.687 Y90.176 E3.88928
G1 X97.263 Y90.176 E3.90444
G1 X95.214 Y88.126 E3.98065
G1 X95.790 Y88.126 E3.99580
G1 X97.840 Y90.176 E4.07202
G1 X98.416 Y90.176 E4.08717
G1 X96.367 Y88.126 E4.16338
G1 X96.943 Y88.126 E4.17854
G1 X98.992 Y90.176 E4.25475
G1 X99.569 Y90.176 E4.26991
G1 X97.519 Y88.126 E4.34612
G1 X98.096 Y88.126 E4.36127
G1 X100.145 Y90.176 E4.43748
G1 X100.721 Y90.176 E4.45264
G1 X98.672 Y88.126 E4.52885
G1 X99.248 Y88.126 E4.54401
G1 X101.298 Y90.176 E4.62022
G1 X101.874 Y90.176 E4.63537
G1 X99.825 Y88.126 E4.71159
G1 X100.401 Y88.126 E4.72674
G1 X102.451 Y90.176 E4.80295
G1 X103.027 Y90.176 E4.81811
G1 X100.978 Y88.126 E4.89432
G1 X101.554 Y88.126 E4.90948
G1 X103.603 Y90.176 E4.98569
G1 X104.180 Y90.176 E5.00084
G1 X102.130 Y88.126 E5.07706
G1 X102.707 Y88.126 E5.09221
G1 X104.756 Y90.176 E5.16842
G1 X105.332 Y90.176 E5.18358
G1 X103.283 Y88.126 E5.25979
G1 X103.859 Y88.126 E5.27495
G1 X106.834 Y91.101 E5.38557
G1 X106.834 Y90.525 E5.40073
G1 X104.436 Y88.126 E5.48992
G1 X105.012 Y88.126 E5.50507
G1 X107.062 Y90.176 E5.58128
G1 X107.638 Y90.176 E5.59644
G1 X105.588 Y88.126 E5.67265
G1 X105.780 Y87.742 F12000.000
G1 X108.214 Y90.176 E5.76318 F1200.000
G1 X108.791 Y90.176 E5.77833
G1 X106.741 Y88.126 E5.85455
G1 X106.834 Y87.643 E5.86749
G1 X105.938 Y86.747 E5.90081
G1 X105.780 Y87.165 E5.91257
G1 X106.834 Y88.219 E5.95177
G1 X107.318 Y88.126 E5.96472
G1 X109.367 Y90.176 E6.04093
G1 X109.834 Y90.067 E6.05354
G1 X107.894 Y88.126 E6.12570
G1 X108.470 Y88.126 E6.14085
G1 X109.834 Y89.490 E6.19157
G1 X109.834 Y88.914 E6.20673
G1 X109.047 Y88.126 E6.23601
G1 X109.623 Y88.126 E6.25117
G1 X109.834 Y88.338 E6.25902
G1 E4.25902 F1680.00000
G92 E0
G1 X106.834 Y87.067 F12000.000
G1 E2.00000 F1680.00000
G1 X106.515 Y86.747 E2.01189 F1200.000
G1 X105.780 Y90.623 F12000.000
G1 X106.712 Y91.555 E2.04655 F1200.000
G1 X106.135 Y91.555 E2.06170
G1 X105.780 Y91.200 E2.07493
G1 E0.07493 F1680.00000
G92 E0
G1 X91.780 Y91.033 F12000.000
G1 E2.00000 F1680.00000
G1 X91.991 Y91.244 E2.00785 F1200.000
G1 X92.567 Y91.244 E2.02301
G1 X91.780 Y90.456 E2.05229
G1 X91.780 Y89.880 E2.06745
G1 X92.834 Y90.934 E2.10666
G1 X92.834 Y90.358 E2.12181
G1 X91.780 Y89.303 E2.16102
G1 X91.780 Y88.727 E2.17618
G1 X93.229 Y90.176 E2.23005
G1 X93.805 Y90.176 E2.24521
G1 X91.780 Y88.151 E2.32052
G1 E0.32052 F1680.00000
G92 E0
G1 X92.476 Y78.904 F12000.000
G1 E2.00000 F1680.00000
G1 X102.557 Y78.904 E2.26240 F720.000
G1 X102.557 Y77.524 E2.29830
G1 X104.057 Y77.524 E2.33734
G1 X104.057 Y78.904 E2.37325
G1 X107.057 Y78.904 E2.45134 F720.000
G1 X107.057 Y81.399 E2.51628
G1 X104.057 Y81.399 E2.59437
G1 X104.057 Y82.778 E2.63027
G1 X102.557 Y82.778 E2.66932
G1 X102.557 Y81.399 E2.70522
G1 X91.557 Y81.399 E2.99154
G1 X91.557 Y78.904 E3.05648
G1 X92.401 Y78.904 E3.07846
G1 X91.991 Y81.176 F12000.000
G1 X91.780 Y80.965 E3.08629 F1200.000
G1 X91.780 Y80.390 E3.10139
G1 X92.566 Y81.176 E3.13057
G1 X93.141 Y81.176 E3.14567
G1 X91.780 Y79.814 E3.19620
G1 X91.780 Y79.239 E3.21130
G1 X93.717 Y81.176 E3.28318
G1 X94.292 Y81.176 E3.29827
G1 X92.242 Y79.126 E3.37433
G1 X92.818 Y79.126 E3.38943
G1 X94.867 Y81.176 E3.46549
G1 X95.442 Y81.176 E3.48058
G1 X93.393 Y79.126 E3.55664
G1 X93.968 Y79.126 E3.57174
G1 X96.018 Y81.176 E3.64780
G1 X96.593 Y81.176 E3.66290
G1 X94.543 Y79.126 E3.73896
G1 X95.119 Y79.126 E3.75405
G1 X97.168 Y81.176 E3.83011
G1 X97.743 Y81.176 E3.84521
G1 X95.694 Y79.126 E3.92127
G1 X96.269 Y79.126 E3.93636
G1 X98.318 Y81.176 E4.01242
G1 X98.894 Y81.176 E4.02752
G1 X96.844 Y79.126 E4.10358
G1 X97.419 Y79.126 E4.11867
G1 X99.469 Y81.176 E4.19473
G1 X100.044 Y81.176 E4.20983
G1 X97.995 Y79.126 E4.28589
G1 X98.570 Y79.126 E4.30099
G1 X100.619 Y81.176 E4.37705
G1 X101.195 Y81.176 E4.39214
G1 X99.145 Y79.126 E4.46820
G1 X99.720 Y79.126 E4.48330
G1 X101.770 Y81.176 E4.55936
G1 X102.345 Y81.176 E4.57445
G1 X100.296 Y79.126 E4.65051
G1 X100.871 Y79.126 E4.66561
G1 X103.834 Y82.090 E4.77559
G1 X103.834 Y81.515 E4.79068
G1 X101.446 Y79.126 E4.87932
G1 X102.021 Y79.126 E4.89441
G1 X104.071 Y81.176 E4.97047
G1 X104.646 Y81.176 E4.98557
G1 X102.596 Y79.126 E5.06163
G1 X102.780 Y78.735 F12000.000
G1 X105.221 Y81.176 E5.15223 F1200.000
G1 X105.796 Y81.176 E5.16733
G1 X103.747 Y79.126 E5.24339
G1 X103.834 Y78.639 E5.25639
G1 X102.943 Y77.747 E5.28948
G1 X102.780 Y78.159 E5.30111
G1 X103.834 Y79.214 E5.34024
G1 X104.322 Y79.126 E5.35325
G1 X106.372 Y81.176 E5.42931
G1 X106.834 Y81.063 E5.44181
G1 X104.897 Y79.126 E5.51369
G1 X105.473 Y79.126 E5.52878
G1 X106.834 Y80.488 E5.57932
G1 X106.834 Y79.913 E5.59441
G1 X106.048 Y79.126 E5.62360
G1 X106.623 Y79.126 E5.63869
G1 X106.834 Y79.338 E5.64653
G1 E3.64653 F1680.00000
G92 E0
G1 X103.834 Y78.063 F12000.000
G1 E2.00000 F1680.00000
G1 X103.518 Y77.747 E2.01174 F1200.000
G1 X102.780 Y81.611 F12000.000
G1 X103.724 Y82.555 E2.04679 F1200.000
G1 X103.149 Y82.555 E2.06189
G1 X102.780 Y82.186 E2.07560
M106 S255
M104 S188 ; set temperature
G1 E0.07560 F1680.00000
G92 E0
G1 Z0.650 F12000.000
G1 X59.943 Y88.230 F12000.000
G1 E2.00000 F1680.00000
G1 X59.943 Y87.438 E2.01485 F912.336
G1 X61.443 Y87.438 E2.04295
G1 X61.443 Y88.461 E2.06212
G1 X73.943 Y88.461 E2.29634
G1 X73.943 Y87.141 E2.32108
G1 X75.443 Y87.141 E2.34918
G1 X75.443 Y88.461 E2.37392
G1 X78.443 Y88.461 E2.43013 F912.336
G1 X78.443 Y91.236 E2.48213
G1 X75.443 Y91.236 E2.53834
G1 X75.443 Y92.557 E2.56308
G1 X73.943 Y92.557 E2.59119
G1 X73.943 Y91.236 E2.61592
G1 X61.443 Y91.236 E2.85014
G1 X61.443 Y92.260 E2.86931
G1 X59.943 Y92.260 E2.89742
G1 X59.943 Y88.305 E2.97151
G1 X60.191 Y87.911 F12000.000
G1 X60.416 Y87.686 E2.97762 F1520.560
G1 X61.048 Y87.686 E2.98977
G1 X60.191 Y88.543 E3.01306
G1 X60.191 Y89.175 E3.02521
G1 X61.195 Y88.171 E3.05249
G1 X61.289 Y88.709 E3.06299
G1 X60.191 Y89.807 E3.09283
G1 X60.191 Y90.439 E3.10498
G1 X61.921 Y88.709 E3.15200
G1 X62.553 Y88.709 E3.16414
G1 X60.191 Y91.071 E3.22834
G1 X61.195 Y91.331 F12000.000
G1 X60.515 Y92.011 E3.24683 F1520.560
G1 X60.191 Y91.703 E3.25542
G1 X63.185 Y88.709 E3.33680
G1 X63.817 Y88.709 E3.34895
G1 X61.538 Y90.988 E3.41090
G1 X62.170 Y90.988 E3.42305
G1 X64.449 Y88.709 E3.48500
G1 X65.081 Y88.709 E3.49715
G1 X62.802 Y90.988 E3.55910
G1 X63.434 Y90.988 E3.57125
G1 X65.713 Y88.709 E3.63320
G1 X66.345 Y88.709 E3.64535
G1 X64.066 Y90.988 E3.70730
G1 X64.698 Y90.988 E3.71945
G1 X66.977 Y88.709 E3.78140
G1 X67.609 Y88.709 E3.79355
G1 X65.330 Y90.988 E3.85550
G1 X65.962 Y90.988 E3.86764
G1 X68.241 Y88.709 E3.92959
G1 X68.873 Y88.709 E3.94174
G1 X66.594 Y90.988 E4.00369
G1 X67.226 Y90.988 E4.01584
G1 X69.505 Y88.709 E4.07779
G1 X70.137 Y88.709 E4.08994
G1 X67.858 Y90.988 E4.15189
G1 X68.490 Y90.988 E4.16404
G1 X70.769 Y88.709 E4.22599
G1 X71.401 Y88.709 E4.23814
G1 X69.122 Y90.988 E4.30009
G1 X69.754 Y90.988 E4.31224
G1 X72.033 Y88.709 E4.37419
G1 X72.665 Y88.709 E4.38634
G1 X70.386 Y90.988 E4.44829
G1 X71.018 Y90.988 E4.46044
G1 X73.297 Y88.709 E4.52239
G1 X73.929 Y88.709 F12000.000
G1 X71.650 Y90.988 E4.58434 F1520.560
G1 X72.282 Y90.988 E4.59649
G1 X75.195 Y88.075 E4.67567
G1 X75.195 Y88.707 E4.68782
G1 X72.914 Y90.988 E4.74982
G1 X73.546 Y90.988 E4.76197
G1 X75.825 Y88.709 E4.82392
G1 X76.457 Y88.709 E4.83607
G1 X74.178 Y90.988 E4.89802
G1 X74.191 Y91.607 E4.90992
G1 X77.089 Y88.709 E4.98869
G1 X77.721 Y88.709 E5.00084
G1 X75.442 Y90.988 E5.06279
G1 X76.074 Y90.988 E5.07494
G1 X78.195 Y88.867 E5.13259
G1 X78.195 Y89.499 E5.14474
G1 X76.706 Y90.988 E5.18521
G1 X77.338 Y90.988 E5.19736
G1 X78.195 Y90.131 E5.22065
G1 X78.195 Y90.763 E5.23280
G1 X77.970 Y90.988 E5.23891
G1 E3.23891 F1680.00000
G92 E0
G1 X74.754 Y92.308 F12000.000
G1 E2.00000 F1680.00000
G1 X75.195 Y91.867 E2.01199 F1520.560
G1 X75.195 Y91.235 E2.02414
G1 X74.191 Y92.239 E2.05142
G1 X74.191 Y88.447 F12000.000
G1 X75.195 Y87.443 E2.07870 F1520.560
G1 X74.617 Y87.389 E2.08986
G1 X74.191 Y87.815 E2.10143
G1 E0.10143 F1680.00000
G92 E0
G1 X70.943 Y83.557 F12000.000
G1 E2.00000 F1680.00000
G1 X70.943 Y82.236 E2.02474 F912.336
