; generated by Slic3r 1.2.6 on 2015-05-11 at 23:30:44

; external perimeters extrusion width = 0.50mm
; perimeters extrusion width = 0.50mm
; infill extrusion width = 0.50mm
; solid infill extrusion width = 0.50mm
; top infill extrusion width = 0.50mm

M104 S190 ; set temperature
G28 ; home all axes
G1 Z15 F120 ; lift nozzle
M109 S190 ; wait for temperature to be reached
G21 ; set units to millimeters
G90 ; use absolute coordinates
M82 ; use absolute distances for extrusion
G92 E0
M106 S211.65
G1 E-2.00000 F1680.00000
G92 E0
G1 Z0.350 F12000.000
G1 X58.883 Y71.916 F12000.000
G1 E2.00000 F1680.00000
G1 X62.035 Y71.091 E2.09172 F1200.000
G1 X64.215 Y71.094 E2.15308
G1 X93.422 Y71.916 E2.97564 F1200.000
G1 X108.422 Y72.984 E3.39899
G1 X110.613 Y73.538 E3.46262
G1 X112.478 Y74.815 E3.52626
G1 X113.786 Y76.658 E3.58989
G1 X114.401 Y79.404 E3.66909
G1 X114.401 Y82.399 E3.75341
G1 X114.071 Y84.435 E3.81147
G1 X111.071 Y93.432 E4.07848
G1 X109.990 Y95.418 E4.14212
G1 X108.290 Y96.907 E4.20575
G1 X105.581 Y97.803 E4.28608
G1 X94.481 Y98.871 E4.60000
G1 X93.865 Y98.901 E4.61738
G1 X91.785 Y98.898 E4.67593
G1 X62.855 Y98.090 E5.49067
G1 X60.642 Y97.631 E5.55431
G1 X58.337 Y96.056 E5.63291
G1 X57.337 Y94.988 E5.67409
G1 X56.106 Y93.092 E5.73773
G1 X55.599 Y90.588 E5.80964
G1 X55.599 Y77.528 E6.17732
G1 X55.996 Y75.303 E6.24095
G1 X57.137 Y73.352 E6.30459
G1 X58.825 Y71.964 E6.36611
G1 E4.36611 F1680.00000
G92 E0
G1 X69.405 Y90.338 F12000.000
G1 E2.00000 F1680.00000
G1 X64.785 Y90.338 E2.12025 F900.000
G1 X64.785 Y91.406 E2.14804
G1 X63.285 Y91.406 E2.18709
G1 X63.285 Y90.338 E2.21488
G1 X62.285 Y90.338 E2.24091
G1 X62.285 Y87.848 E2.30573
G1 X63.285 Y87.848 E2.33176
G1 X63.285 Y86.780 E2.35956
G1 X64.785 Y86.780 E2.39860
G1 X64.785 Y87.848 E2.42640
G1 X75.785 Y87.848 E2.71272 F900.000
G1 X75.785 Y90.338 E2.77754
G1 X69.480 Y90.338 E2.94166
G1 X65.010 Y90.115 F12000.000
G1 X62.966 Y88.071 E3.01947 F1200.000
G1 X63.508 Y88.023 E3.03411
G1 X65.600 Y90.115 E3.11373
G1 X66.190 Y90.115 E3.12960
G1 X63.508 Y87.433 E3.23165
G1 X63.667 Y87.003 E3.24401
G1 X66.780 Y90.115 E3.36245
G1 X67.369 Y90.115 E3.37832
G1 X65.325 Y88.071 E3.45613
G1 X65.915 Y88.071 E3.47199
G1 X67.959 Y90.115 E3.54980
G1 X68.549 Y90.115 E3.56567
G1 X66.504 Y88.071 E3.64348
G1 X67.094 Y88.071 E3.65935
G1 X69.139 Y90.115 E3.73715
G1 X69.729 Y90.115 E3.75302
G1 X67.684 Y88.071 E3.83083
G1 X68.274 Y88.071 E3.84670
G1 X70.318 Y90.115 E3.92451
G1 X70.908 Y90.115 E3.94038
G1 X68.863 Y88.071 E4.01818
G1 X69.453 Y88.071 E4.03405
G1 X71.498 Y90.115 E4.11186
G1 X72.088 Y90.115 E4.12773
G1 X70.043 Y88.071 E4.20554
G1 X70.633 Y88.071 E4.22141
G1 X72.678 Y90.115 E4.29921
G1 X73.267 Y90.115 E4.31508
G1 X71.223 Y88.071 E4.39289
G1 X71.812 Y88.071 E4.40876
G1 X73.857 Y90.115 E4.48657
G1 X74.447 Y90.115 E4.50244
G1 X72.402 Y88.071 E4.58024
G1 X72.992 Y88.071 E4.59611
G1 X75.037 Y90.115 E4.67392
G1 X75.562 Y90.051 E4.68817
G1 X73.582 Y88.071 E4.76353
G1 X74.172 Y88.071 E4.77940
G1 X75.562 Y89.461 E4.83232
G1 X75.562 Y88.872 E4.84819
G1 X74.761 Y88.071 E4.87867
G1 X75.351 Y88.071 E4.89454
G1 X75.562 Y88.282 E4.90257
G1 E2.90257 F1680.00000
G92 E0
G1 X64.562 Y87.308 F12000.000
G1 E2.00000 F1680.00000
G1 X64.257 Y87.003 E2.01162 F1200.000
G1 X62.508 Y89.382 F12000.000
G1 X63.241 Y90.115 E2.03952 F1200.000
G1 X63.508 Y90.382 F12000.000
G1 X64.309 Y91.183 E2.06999 F1200.000
G1 X64.562 Y90.847 E2.08133
G1 X62.508 Y88.793 E2.15950
G1 X62.508 Y88.203 E2.17537
G1 X64.562 Y90.257 E2.25354
G1 X63.719 Y91.183 F12000.000
G1 X63.508 Y90.972 E2.26158 F1200.000
G1 E0.26158 F1680.00000
G92 E0
G1 X76.975 Y78.846 F12000.000
G1 E2.00000 F1680.00000
G1 X78.785 Y78.846 E2.04711 F720.000
G1 X78.785 Y81.341 E2.11205
G1 X63.785 Y81.341 E2.50249
G1 X63.785 Y82.408 E2.53028
G1 X62.285 Y82.408 E2.56932
G1 X62.285 Y77.778 E2.68985
G1 X63.785 Y77.778 E2.72890
G1 X63.785 Y78.846 E2.75669
G1 X76.900 Y78.846 E3.09806 F720.000
G1 X78.562 Y79.280 F12000.000
G1 X78.351 Y79.068 E3.10605 F1200.000
G1 X77.765 Y79.068 E3.12171
G1 X78.562 Y79.865 E3.15184
G1 X78.562 Y80.451 E3.16750
G1 X77.179 Y79.068 E3.21978
G1 X76.593 Y79.068 E3.23544
G1 X78.562 Y81.037 E3.30987
G1 X78.057 Y81.118 E3.32355
G1 X76.007 Y79.068 E3.40103
G1 X75.422 Y79.068 E3.41669
G1 X77.471 Y81.118 E3.49416
G1 X76.885 Y81.118 E3.50982
G1 X74.836 Y79.068 E3.58730
G1 X74.250 Y79.068 E3.60296
G1 X76.299 Y81.118 E3.68043
G1 X75.713 Y81.118 E3.69610
G1 X73.664 Y79.068 E3.77357
G1 X73.078 Y79.068 E3.78923
G1 X75.127 Y81.118 E3.86671
G1 X74.541 Y81.118 E3.88237
G1 X72.492 Y79.068 E3.95984
G1 X71.906 Y79.068 E3.97550
G1 X73.955 Y81.118 E4.05298
G1 X73.370 Y81.118 E4.06864
G1 X71.320 Y79.068 E4.14611
G1 X70.734 Y79.068 E4.16177
G1 X72.784 Y81.118 E4.23925
G1 X72.198 Y81.118 E4.25491
G1 X70.148 Y79.068 E4.33238
G1 X69.562 Y79.068 E4.34804
G1 X71.612 Y81.118 E4.42552
G1 X71.026 Y81.118 E4.44118
G1 X68.976 Y79.068 E4.51865
G1 X68.391 Y79.068 E4.53432
G1 X70.440 Y81.118 E4.61179
G1 X69.854 Y81.118 E4.62745
G1 X67.805 Y79.068 E4.70493
G1 X67.219 Y79.068 E4.72059
G1 X69.268 Y81.118 E4.79806
G1 X68.682 Y81.118 E4.81372
G1 X66.633 Y79.068 E4.89120
G1 X66.047 Y79.068 E4.90686
G1 X68.096 Y81.118 E4.98433
G1 X67.510 Y81.118 E4.99999
G1 X65.461 Y79.068 E5.07747
G1 X64.875 Y79.068 E5.09313
G1 X66.925 Y81.118 E5.17060
G1 X66.339 Y81.118 E5.18626
G1 X64.289 Y79.068 E5.26374
G1 X63.703 Y79.068 E5.27940
G1 X65.753 Y81.118 E5.35687
G1 X65.167 Y81.118 E5.37254
G1 X62.508 Y78.459 E5.47305
G1 X62.636 Y78.001 E5.48577
G1 X63.562 Y78.927 E5.52080
G1 X63.562 Y78.341 E5.53646
G1 X63.221 Y78.001 E5.54934
G1 X62.508 Y79.045 F12000.000
G1 X64.581 Y81.118 E5.62771 F1200.000
G1 X63.995 Y81.118 E5.64337
G1 X62.508 Y79.631 E5.69958
G1 X62.508 Y80.217 E5.71525
G1 X63.562 Y81.271 E5.75510
G1 X63.562 Y81.857 E5.77076
G1 X62.508 Y80.803 E5.81062
G1 X62.508 Y81.388 E5.82628
G1 X63.305 Y82.186 E5.85641
G1 X62.719 Y82.186 E5.87208
G1 X62.508 Y81.974 E5.88006
G1 E3.88006 F1680.00000
G92 E0
G1 X101.925 Y88.656 F12000.000
G1 E2.00000 F1680.00000
G1 X104.715 Y88.656 E2.07261 F900.000
G1 X104.715 Y91.147 E2.13743
G1 X93.715 Y91.147 E2.42375
G1 X93.715 Y92.214 E2.45155
G1 X92.215 Y92.214 E2.49059
G1 X92.215 Y91.147 E2.51839
G1 X91.215 Y91.147 E2.54441
G1 X91.215 Y88.656 E2.60924
G1 X92.215 Y88.656 E2.63527
G1 X92.215 Y87.588 E2.66306
G1 X93.715 Y87.588 E2.70211
G1 X93.715 Y88.656 E2.72990
G1 X101.850 Y88.656 E2.94166 F900.000
G1 X104.492 Y89.090 F12000.000
G1 X104.281 Y88.879 E2.94969 F1200.000
G1 X103.691 Y88.879 E2.96556
G1 X104.492 Y89.680 E2.99604
G1 X104.492 Y90.270 E3.01191
G1 X103.101 Y88.879 E3.06483
G1 X102.512 Y88.879 E3.08070
G1 X104.492 Y90.860 E3.15607
G1 X103.967 Y90.924 E3.17031
G1 X101.922 Y88.879 E3.24812
G1 X101.332 Y88.879 E3.26399
G1 X103.377 Y90.924 E3.34180
G1 X102.787 Y90.924 E3.35767
G1 X100.742 Y88.879 E3.43547
G1 X100.152 Y88.879 E3.45134
G1 X102.197 Y90.924 E3.52915
G1 X101.607 Y90.924 E3.54502
G1 X99.563 Y88.879 E3.62283
G1 X98.973 Y88.879 E3.63869
G1 X101.018 Y90.924 E3.71650
G1 X100.428 Y90.924 E3.73237
G1 X98.383 Y88.879 E3.81018
G1 X97.793 Y88.879 E3.82605
G1 X99.838 Y90.924 E3.90385
G1 X99.248 Y90.924 E3.91972
G1 X97.204 Y88.879 E3.99753
G1 X96.614 Y88.879 E4.01340
G1 X98.658 Y90.924 E4.09121
G1 X98.069 Y90.924 E4.10708
G1 X96.024 Y88.879 E4.18488
G1 X95.434 Y88.879 E4.20075
G1 X97.479 Y90.924 E4.27856
G1 X96.889 Y90.924 E4.29443
G1 X94.844 Y88.879 E4.37224
G1 X94.255 Y88.879 E4.38811
G1 X96.299 Y90.924 E4.46591
G1 X95.710 Y90.924 E4.48178
G1 X92.597 Y87.811 E4.60023
G1 X92.438 Y88.242 E4.61258
G1 X95.120 Y90.924 E4.71463
G1 X94.530 Y90.924 E4.73050
G1 X92.438 Y88.832 E4.81012
G1 X91.895 Y88.879 E4.82477
G1 X93.940 Y90.924 E4.90257
G1 X93.492 Y91.066 F12000.000
G1 X91.438 Y89.011 E4.98075 F1200.000
G1 X91.438 Y89.601 E4.99661
G1 X93.492 Y91.655 E5.07479
G1 X93.239 Y91.992 E5.08612
G1 X92.438 Y91.191 E5.11660
G1 X92.171 Y90.924 F12000.000
G1 X91.438 Y90.191 E5.14449 F1200.000
G1 X92.438 Y91.781 F12000.000
G1 X92.649 Y91.992 E5.15253 F1200.000
G1 X93.492 Y88.117 F12000.000
G1 X93.187 Y87.811 E5.16415 F1200.000
G1 E3.16415 F1680.00000
G92 E0
G1 X92.681 Y83.217 F12000.000
G1 E2.00000 F1680.00000
G1 X91.215 Y83.217 E2.03817 F720.000
G1 X91.215 Y78.586 E2.15870
G1 X92.715 Y78.586 E2.19774
G1 X92.715 Y79.654 E2.22554
G1 X107.715 Y79.654 E2.61597 F720.000
G1 X107.715 Y82.149 E2.68092
G1 X92.715 Y82.149 E3.07135
G1 X92.715 Y83.175 E3.09806
G1 X91.438 Y82.783 F12000.000
G1 X91.649 Y82.994 E3.10605 F1200.000
G1 X92.235 Y82.994 E3.12171
G1 X91.438 Y82.197 E3.15184
G1 X91.438 Y81.611 E3.16750
G1 X92.492 Y82.665 E3.20736
G1 X92.492 Y82.079 E3.22302
G1 X91.438 Y81.025 E3.26288
G1 X91.438 Y80.439 E3.27854
G1 X92.925 Y81.926 E3.33475
G1 X93.511 Y81.926 E3.35041
G1 X91.438 Y79.853 E3.42878
G1 X92.151 Y78.809 F12000.000
G1 X92.492 Y79.150 E3.44166 F1200.000
G1 X92.492 Y79.736 E3.45732
G1 X91.565 Y78.809 E3.49236
G1 X91.438 Y79.267 E3.50507
G1 X94.097 Y81.926 E3.60559
G1 X94.683 Y81.926 E3.62125
G1 X92.633 Y79.877 E3.69872
G1 X93.219 Y79.877 E3.71438
G1 X95.268 Y81.926 E3.79186
G1 X95.854 Y81.926 E3.80752
G1 X93.805 Y79.877 E3.88499
G1 X94.391 Y79.877 E3.90065
G1 X96.440 Y81.926 E3.97813
G1 X97.026 Y81.926 E3.99379
G1 X94.977 Y79.877 E4.07126
G1 X95.563 Y79.877 E4.08693
G1 X97.612 Y81.926 E4.16440
G1 X98.198 Y81.926 E4.18006
G1 X96.149 Y79.877 E4.25754
G1 X96.734 Y79.877 E4.27320
G1 X98.784 Y81.926 E4.35067
G1 X99.370 Y81.926 E4.36633
G1 X97.320 Y79.877 E4.44381
G1 X97.906 Y79.877 E4.45947
G1 X99.956 Y81.926 E4.53694
G1 X100.542 Y81.926 E4.55260
G1 X98.492 Y79.877 E4.63008
G1 X99.078 Y79.877 E4.64574
G1 X101.128 Y81.926 E4.72321
G1 X101.713 Y81.926 E4.73887
G1 X99.664 Y79.877 E4.81635
G1 X100.250 Y79.877 E4.83201
G1 X102.299 Y81.926 E4.90948
G1 X102.885 Y81.926 E4.92515
G1 X100.836 Y79.877 E5.00262
G1 X101.422 Y79.877 E5.01828
G1 X103.471 Y81.926 E5.09576
G1 X104.057 Y81.926 E5.11142
G1 X102.008 Y79.877 E5.18889
G1 X102.594 Y79.877 E5.20455
G1 X104.643 Y81.926 E5.28203
G1 X105.229 Y81.926 E5.29769
G1 X103.180 Y79.877 E5.37516
G1 X103.765 Y79.877 E5.39082
G1 X105.815 Y81.926 E5.46830
G1 X106.401 Y81.926 E5.48396
G1 X104.351 Y79.877 E5.56143
G1 X104.937 Y79.877 E5.57709
G1 X106.987 Y81.926 E5.65457
G1 X107.492 Y81.846 E5.66825
G1 X105.523 Y79.877 E5.74268
G1 X106.109 Y79.877 E5.75834
G1 X107.492 Y81.260 E5.81062
G1 X107.492 Y80.674 E5.82628
G1 X106.695 Y79.877 E5.85641
G1 X107.281 Y79.877 E5.87208
G1 X107.492 Y80.088 E5.88006
M106 S255
M104 S188 ; set temperature
G1 E3.88006 F1680.00000
G92 E0
G1 Z0.650 F12000.000
G1 X64.785 Y91.498 F12000.000
G1 E2.00000 F1680.00000
G1 X63.285 Y91.498 E2.02811 F934.360
G1 X63.285 Y90.479 E2.04719
G1 X62.285 Y90.479 E2.06593
G1 X62.285 Y87.707 E2.11788
G1 X63.285 Y87.707 E2.13662
G1 X63.285 Y86.688 E2.15570
G1 X64.785 Y86.688 E2.18381
G1 X64.785 Y87.707 E2.20289
G1 X75.785 Y87.707 E2.40900 F934.360
G1 X75.785 Y90.479 E2.46095
G1 X64.785 Y90.479 E2.66706
G1 X64.785 Y91.423 E2.68474
G1 X64.537 Y90.488 F12000.000
G1 X63.776 Y91.250 E2.70500 F1245.814
G1 X63.533 Y90.873 E2.71343
G1 X66.452 Y87.955 E2.79109
G1 X65.833 Y87.955 E2.80273
G1 X63.533 Y90.255 E2.86393
G1 X62.938 Y90.231 E2.87514
G1 X65.214 Y87.955 E2.93571
G1 X64.596 Y87.955 E2.94735
G1 X62.533 Y90.017 E3.00223
G1 X62.533 Y89.399 E3.01388
G1 X64.537 Y87.395 E3.06720
G1 X64.377 Y86.936 E3.07634
G1 X62.533 Y88.780 E3.12540
G1 X62.533 Y88.161 E3.13704
G1 X62.739 Y87.955 E3.14252
G1 X63.533 Y87.161 F12000.000
G1 X63.758 Y86.936 E3.14851 F1245.814
G1 X64.794 Y90.231 F12000.000
G1 X67.070 Y87.955 E3.20908 F1245.814
G1 X67.689 Y87.955 E3.22072
G1 X65.413 Y90.231 E3.28129
G1 X66.032 Y90.231 E3.29293
G1 X68.308 Y87.955 E3.35350
G1 X68.926 Y87.955 E3.36515
G1 X66.650 Y90.231 E3.42572
G1 X67.269 Y90.231 E3.43736
G1 X69.545 Y87.955 E3.49793
G1 X70.164 Y87.955 E3.50957
G1 X67.888 Y90.231 E3.57015
G1 X68.506 Y90.231 E3.58179
G1 X70.782 Y87.955 E3.64236
G1 X71.401 Y87.955 E3.65400
G1 X69.125 Y90.231 E3.71457
G1 X69.744 Y90.231 E3.72621
G1 X72.020 Y87.955 E3.78679
G1 X72.639 Y87.955 E3.79843
G1 X70.362 Y90.231 E3.85900
G1 X70.981 Y90.231 E3.87064
G1 X73.257 Y87.955 E3.93121
G1 X73.876 Y87.955 E3.94286
G1 X71.600 Y90.231 E4.00343
G1 X72.219 Y90.231 E4.01507
G1 X74.495 Y87.955 E4.07564
G1 X75.113 Y87.955 E4.08728
G1 X72.837 Y90.231 E4.14785
G1 X73.456 Y90.231 E4.15950
G1 X75.537 Y88.150 E4.21487
G1 X75.537 Y88.769 E4.22652
G1 X74.075 Y90.231 E4.26543
G1 X74.693 Y90.231 E4.27707
G1 X75.537 Y89.388 E4.29952
G1 X75.537 Y90.006 E4.31116
G1 X75.312 Y90.231 E4.31714
G1 E2.31714 F1680.00000
G92 E0
G1 X62.285 Y82.022 F12000.000
G1 E2.00000 F1680.00000
G1 X62.285 Y77.682 E2.08131 F747.488
G1 X63.785 Y77.682 E2.10942
G1 X63.785 Y78.705 E2.12859
G1 X78.785 Y78.705 E2.40965 F747.488
G1 X78.785 Y81.481 E2.46165
G1 X63.785 Y81.481 E2.74271
G1 X63.785 Y82.504 E2.76188
G1 X62.285 Y82.504 E2.78998
G1 X62.285 Y82.097 E2.79761
G1 X63.537 Y81.551 F12000.000
G1 X62.833 Y82.256 E2.81665 F1245.814
G1 X62.533 Y81.926 E2.82516
G1 X65.506 Y78.954 E2.90553
G1 X64.878 Y78.954 E2.91755
G1 X62.533 Y81.298 E2.98092
G1 X62.533 Y80.669 E2.99294
G1 X64.249 Y78.954 E3.03933
G1 X63.621 Y78.954 E3.05134
G1 X62.533 Y80.041 E3.08074
G1 X62.533 Y79.412 E3.09275
G1 X63.537 Y78.409 E3.11988
G1 X63.387 Y77.930 E3.12947
G1 X62.533 Y78.784 E3.15254
G1 X62.533 Y78.155 E3.16455
G1 X62.758 Y77.930 E3.17063
G1 X63.856 Y81.233 F12000.000
G1 X66.135 Y78.954 E3.23224 F1245.814
G1 X66.763 Y78.954 E3.24426
G1 X64.484 Y81.233 E3.30587
G1 X65.113 Y81.233 E3.31788
G1 X67.392 Y78.954 E3.37949
G1 X68.020 Y78.954 E3.39151
G1 X65.741 Y81.233 E3.45312
G1 X66.370 Y81.233 E3.46514
G1 X68.649 Y78.954 E3.52675
G1 X69.277 Y78.954 E3.53876
G1 X66.998 Y81.233 E3.60037
G1 X67.627 Y81.233 E3.61239
G1 X69.906 Y78.954 E3.67400
G1 X70.534 Y78.954 E3.68601
G1 X68.256 Y81.233 E3.74763
G1 X68.884 Y81.233 E3.75964
G1 X71.163 Y78.954 E3.82125
G1 X71.791 Y78.954 E3.83327
G1 X69.513 Y81.233 E3.89488
G1 X70.141 Y81.233 E3.90689
G1 X72.420 Y78.954 E3.96850
G1 X73.049 Y78.954 E3.98052
G1 X70.770 Y81.233 E4.04213
G1 X71.398 Y81.233 E4.05415
G1 X73.677 Y78.954 E4.11576
G1 X74.306 Y78.954 E4.12777
G1 X72.027 Y81.233 E4.18938
G1 X72.655 Y81.233 E4.20140
G1 X74.934 Y78.954 E4.26301
G1 X75.563 Y78.954 E4.27502
G1 X73.284 Y81.233 E4.33664
G1 X73.912 Y81.233 E4.34865
G1 X76.191 Y78.954 E4.41026
G1 X76.820 Y78.954 E4.42228
G1 X74.541 Y81.233 E4.48389
G1 X75.169 Y81.233 E4.49590
G1 X77.448 Y78.954 E4.55751
G1 X78.077 Y78.954 E4.56953
G1 X75.798 Y81.233 E4.63114
G1 X76.426 Y81.233 E4.64316
G1 X78.537 Y79.122 E4.70021
G1 X78.537 Y79.751 E4.71223
G1 X77.055 Y81.233 E4.75229
G1 X77.684 Y81.233 E4.76431
G1 X78.537 Y80.379 E4.78738
G1 X78.537 Y81.008 E4.79939
G1 X78.312 Y81.233 E4.80547
G1 E2.80547 F1680.00000
G92 E0
G1 X104.320 Y91.288 F12000.000
G1 E2.00000 F1680.00000
G1 X93.715 Y91.288 E2.19871 F934.360
G1 X93.715 Y92.306 E2.21779
G1 X92.215 Y92.306 E2.24590
G1 X92.215 Y91.288 E2.26499
G1 X91.215 Y91.288 E2.28372
G1 X91.215 Y88.515 E2.33567
G1 X92.215 Y88.515 E2.35441
G1 X92.215 Y87.497 E2.37350
G1 X93.715 Y87.497 E2.40160
G1 X93.715 Y88.515 E2.42069
G1 X104.715 Y88.515 E2.62680 F934.360
G1 X104.715 Y91.288 E2.67875
G1 X104.395 Y91.288 E2.68474
G1 X104.242 Y91.039 F12000.000
G1 X104.467 Y90.815 E2.69073 F1245.814
G1 X104.467 Y90.196 E2.70237
G1 X103.623 Y91.039 E2.72482
G1 X103.005 Y91.039 E2.73646
G1 X104.467 Y89.577 E2.77537
G1 X104.467 Y88.959 E2.78701
G1 X102.386 Y91.039 E2.84239
G1 X101.767 Y91.039 E2.85403
G1 X104.043 Y88.763 E2.91461
G1 X103.425 Y88.763 E2.92625
G1 X101.148 Y91.039 E2.98682
G1 X100.530 Y91.039 E2.99846
G1 X102.806 Y88.763 E3.05903
G1 X102.187 Y88.763 E3.07067
G1 X99.911 Y91.039 E3.13125
G1 X99.292 Y91.039 E3.14289
G1 X101.568 Y88.763 E3.20346
G1 X100.950 Y88.763 E3.21510
G1 X98.674 Y91.039 E3.27567
G1 X98.055 Y91.039 E3.28732
G1 X100.331 Y88.763 E3.34789
G1 X99.712 Y88.763 E3.35953
G1 X97.436 Y91.039 E3.42010
G1 X96.818 Y91.039 E3.43174
G1 X99.094 Y88.763 E3.49231
G1 X98.475 Y88.763 E3.50396
G1 X96.199 Y91.039 E3.56453
G1 X95.580 Y91.039 E3.57617
G1 X97.856 Y88.763 E3.63674
G1 X97.238 Y88.763 E3.64838
G1 X94.961 Y91.039 E3.70895
G1 X94.343 Y91.039 E3.72060
