; generated by Slic3r 1.2.6 on 2015-04-29 at 20:11:49

; external perimeters extrusion width = 0.50mm
; perimeters extrusion width = 0.50mm
; infill extrusion width = 0.50mm
; solid infill extrusion width = 0.50mm
; top infill extrusion width = 0.50mm

M104 S190 ; set temperature
G28 ; home all axes
G1 Z15 F120 ; lift nozzle
M109 S190 ; wait for temperature to be reached
G21 ; set units to millimeters
G90 ; use absolute coordinates
M82 ; use absolute distances for extrusion
G92 E0
M106 S102
G1 E-2.00000 F1680.00000
G92 E0
G1 Z0.400 F12000.000
G1 X55.898 Y55.898 F12000.000
G1 E2.00000 F1680.00000
G1 X56.902 Y54.916 E2.04203 F1200.000
G1 X58.565 Y53.444 E2.10855
G1 X60.143 Y52.185 E2.16899
G1 X62.118 Y50.780 E2.24157
G1 X63.802 Y49.710 E2.30132
G1 X65.726 Y48.624 E2.36749
G1 X67.706 Y47.642 E2.43366
G1 X69.735 Y46.768 E2.49983
G1 X71.809 Y46.004 E2.56600
G1 X73.920 Y45.352 E2.63216
G1 X76.064 Y44.815 E2.69833
G1 X77.998 Y44.437 E2.75735
G1 X78.536 Y44.345 E2.77369
G1 X80.422 Y44.089 E2.83067
G1 X82.368 Y43.923 E2.88916
G1 X82.953 Y43.885 E2.90672
G1 X84.587 Y43.841 E2.95568
G1 X85.407 Y43.841 E2.98021
G1 X87.377 Y43.903 E3.03923 F1200.000
G1 X89.578 Y44.089 E3.10540
G1 X91.767 Y44.394 E3.17156
G1 X93.647 Y44.753 E3.22889
G1 X95.806 Y45.278 E3.29540
G1 X96.309 Y45.420 E3.31105
G1 X98.191 Y46.004 E3.37007
G1 X100.022 Y46.673 E3.42843
G1 X102.067 Y47.539 E3.49494
G1 X102.598 Y47.788 E3.51250
G1 X104.274 Y48.624 E3.56857
G1 X106.198 Y49.710 E3.63474
G1 X107.882 Y50.780 E3.69449
G1 X108.367 Y51.111 E3.71205
G1 X109.857 Y52.185 E3.76708
G1 X111.582 Y53.566 E3.83325
G1 X113.230 Y55.038 E3.89941
G1 X114.680 Y56.476 E3.96055
G1 X115.084 Y56.902 E3.97811
G1 X116.434 Y58.418 E4.03890
G1 X117.815 Y60.143 E4.10507
G1 X118.889 Y61.633 E4.16010
G1 X119.220 Y62.118 E4.17766
G1 X120.404 Y63.997 E4.24417
G1 X121.376 Y65.726 E4.30357
G1 X122.212 Y67.402 E4.35964
G1 X122.461 Y67.933 E4.37720
G1 X123.327 Y69.978 E4.44371
G1 X123.996 Y71.809 E4.50208
G1 X124.648 Y73.920 E4.56825
G1 X125.185 Y76.064 E4.63442
G1 X125.563 Y77.998 E4.69343
G1 X125.655 Y78.536 E4.70977
G1 X125.945 Y80.738 E4.77629
G1 X126.097 Y82.623 E4.83291
G1 X126.165 Y84.832 E4.89908
G1 X126.115 Y87.047 E4.96542
G1 X126.077 Y87.632 E4.98298
G1 X125.911 Y89.578 E5.04148
G1 X125.606 Y91.767 E5.10764
G1 X125.185 Y93.936 E5.17381
G1 X124.722 Y95.806 E5.23148
G1 X123.996 Y98.191 E5.30615
G1 X123.232 Y100.264 E5.37231
G1 X122.461 Y102.067 E5.43102
G1 X121.486 Y104.063 E5.49754
G1 X121.209 Y104.580 E5.51510
G1 X120.290 Y106.198 E5.57082
G1 X119.101 Y108.061 E5.63699
G1 X117.815 Y109.857 E5.70316
G1 X116.556 Y111.435 E5.76360
G1 X115.084 Y113.098 E5.83011
G1 X114.680 Y113.524 E5.84767
G1 X113.230 Y114.962 E5.90881
G1 X111.882 Y116.175 E5.96314
G1 X111.435 Y116.556 E5.98070
G1 X109.695 Y117.936 E6.04721
G1 X108.061 Y119.101 E6.10731
G1 X106.198 Y120.290 E6.17348
G1 X104.274 Y121.376 E6.23964
G1 X102.598 Y122.212 E6.29572
G1 X102.067 Y122.461 E6.31328
G1 X100.264 Y123.232 E6.37199
G1 X97.933 Y124.081 E6.44630
G1 X96.080 Y124.648 E6.50432
G1 X93.936 Y125.185 E6.57049
G1 X91.767 Y125.606 E6.63666
G1 X89.844 Y125.876 E6.69480
G1 X89.262 Y125.945 E6.71236
G1 X87.047 Y126.115 E6.77888
G1 X85.168 Y126.165 E6.83516
G1 X82.953 Y126.115 E6.90150
G1 X80.738 Y125.945 E6.96801
G1 X80.156 Y125.876 E6.98557
G1 X78.233 Y125.606 E7.04372
G1 X76.064 Y125.185 E7.10989
G1 X73.920 Y124.648 E7.17605
G1 X72.067 Y124.081 E7.23407
G1 X69.978 Y123.327 E7.30058
G1 X69.435 Y123.107 E7.31814
G1 X67.706 Y122.358 E7.37456
G1 X65.726 Y121.376 E7.44073
G1 X63.997 Y120.404 E7.50013
G1 X63.495 Y120.100 E7.51769
G1 X61.939 Y119.101 E7.57306
G1 X60.143 Y117.815 E7.63923
G1 X58.418 Y116.434 E7.70540
G1 X56.902 Y115.084 E7.76619
G1 X56.476 Y114.680 E7.78375
G1 X55.038 Y113.230 E7.84489
G1 X53.566 Y111.582 E7.91106
G1 X52.420 Y110.161 E7.96574
G1 X52.064 Y109.695 E7.98330
G1 X50.780 Y107.882 E8.04981
G1 X49.710 Y106.198 E8.10956
G1 X48.791 Y104.580 E8.16528
G1 X48.514 Y104.063 E8.18284
G1 X47.539 Y102.067 E8.24936
G1 X46.768 Y100.265 E8.30807
G1 X46.004 Y98.191 E8.37423
G1 X45.352 Y96.080 E8.44040
G1 X44.883 Y94.219 E8.49786
G1 X44.753 Y93.647 E8.51542
G1 X44.345 Y91.464 E8.58193
G1 X44.089 Y89.578 E8.63891
G1 X43.903 Y87.377 E8.70507
G1 X43.834 Y84.832 E8.78130
G1 X43.903 Y82.623 E8.84746
G1 X44.055 Y80.738 E8.90409
G1 X44.345 Y78.536 E8.97061
G1 X44.445 Y77.958 E8.98816
G1 X44.815 Y76.064 E9.04597
G1 X45.352 Y73.920 E9.11213
G1 X46.004 Y71.809 E9.17830
G1 X46.673 Y69.978 E9.23667
G1 X47.642 Y67.706 E9.31064
G1 X48.624 Y65.726 E9.37680
G1 X49.596 Y63.997 E9.43621
G1 X49.900 Y63.495 E9.45377
G1 X51.034 Y61.742 E9.51629
G1 X52.185 Y60.143 E9.57531
G1 X53.566 Y58.418 E9.64148
G1 X55.038 Y56.770 E9.70764
G1 X55.845 Y55.951 E9.74206
G1 E7.74206 F1680.00000
G92 E0
G1 X69.483 Y90.844 F12000.000
G1 E2.00000 F1680.00000
G1 X70.522 Y90.523 E2.03062 F1200.000
G1 X71.588 Y90.306 E2.06123
G1 X72.670 Y90.196 E2.09185
G1 X73.757 Y90.193 E2.12247 F1200.000
G1 X74.840 Y90.297 E2.15308
G1 X75.906 Y90.508 E2.18370
G1 X76.947 Y90.824 E2.21431
G1 X77.952 Y91.240 E2.24492
G1 X78.909 Y91.753 E2.27550
G1 X79.605 Y92.208 E2.29890
G1 X80.459 Y92.879 E2.32947
G1 X81.243 Y93.632 E2.36008
G1 X81.950 Y94.458 E2.39069
G1 X82.571 Y95.351 E2.42131
G1 X83.102 Y96.300 E2.45192
G1 X83.535 Y97.297 E2.48254
G1 X83.869 Y98.333 E2.51315
G1 X84.098 Y99.396 E2.54377
G1 X84.222 Y100.476 E2.57439
G1 X84.238 Y101.564 E2.60500
G1 X84.146 Y102.647 E2.63562
G1 X83.948 Y103.717 E2.66624
G1 X83.645 Y104.761 E2.69686
G1 X83.241 Y105.771 E2.72748
G1 X82.739 Y106.736 E2.75809
G1 X82.144 Y107.646 E2.78871
G1 X81.462 Y108.493 E2.81933
G1 X80.699 Y109.269 E2.84995
G1 X79.864 Y109.966 E2.88057
G1 X78.964 Y110.576 E2.91119
G1 X78.008 Y111.095 E2.94180
G1 X77.006 Y111.517 E2.97242
G1 X75.967 Y111.838 E3.00304
G1 X74.901 Y112.055 E3.03366
G1 X73.819 Y112.165 E3.06427
G1 X72.731 Y112.168 E3.09489
G1 X71.649 Y112.063 E3.12550
G1 X70.582 Y111.852 E3.15612
G1 X69.541 Y111.537 E3.18673
G1 X68.537 Y111.120 E3.21735
G1 X67.580 Y110.607 E3.24792
G1 X66.884 Y110.152 E3.27132
G1 X66.030 Y109.482 E3.30189
G1 X65.245 Y108.729 E3.33250
G1 X64.539 Y107.902 E3.36312
G1 X63.917 Y107.010 E3.39373
G1 X63.387 Y106.061 E3.42434
G1 X62.953 Y105.063 E3.45496
G1 X62.620 Y104.028 E3.48558
G1 X62.390 Y102.965 E3.51619
G1 X62.267 Y101.885 E3.54681
G1 X62.251 Y100.797 E3.57743
G1 X62.342 Y99.713 E3.60804
G1 X62.541 Y98.644 E3.63866
G1 X62.843 Y97.599 E3.66928
G1 X63.248 Y96.590 E3.69990
G1 X63.750 Y95.625 E3.73052
G1 X64.345 Y94.715 E3.76114
G1 X65.027 Y93.867 E3.79175
G1 X65.789 Y93.092 E3.82237
G1 X66.624 Y92.395 E3.85299
G1 X67.524 Y91.784 E3.88361
G1 X68.480 Y91.265 E3.91423
G1 X69.414 Y90.873 E3.94273
G1 E1.94273 F1680.00000
G92 E0
G1 X86.465 Y97.297 F12000.000
G1 E2.00000 F1680.00000
G1 X86.898 Y96.300 E2.03062 F1200.000
G1 X87.429 Y95.351 E2.06123
G1 X88.050 Y94.458 E2.09184
G1 X88.757 Y93.632 E2.12246
G1 X89.541 Y92.879 E2.15307
G1 X90.395 Y92.208 E2.18364
G1 X91.091 Y91.753 E2.20704
G1 X92.048 Y91.240 E2.23761
G1 X93.053 Y90.824 E2.26823
G1 X94.094 Y90.508 E2.29884
G1 X95.160 Y90.297 E2.32946
G1 X96.243 Y90.193 E2.36007 F1200.000
G1 X97.330 Y90.196 E2.39069
G1 X98.412 Y90.306 E2.42130
G1 X99.478 Y90.523 E2.45192
G1 X100.517 Y90.844 E2.48254
G1 X101.520 Y91.265 E2.51316
G1 X102.476 Y91.784 E2.54377
G1 X103.376 Y92.395 E2.57439
G1 X104.211 Y93.092 E2.60501
G1 X104.973 Y93.867 E2.63563
G1 X105.655 Y94.715 E2.66625
G1 X106.250 Y95.625 E2.69687
G1 X106.752 Y96.590 E2.72748
G1 X107.157 Y97.599 E2.75810
G1 X107.459 Y98.644 E2.78872
G1 X107.658 Y99.713 E2.81934
G1 X107.749 Y100.797 E2.84996
G1 X107.733 Y101.885 E2.88057
G1 X107.610 Y102.965 E2.91119
G1 X107.380 Y104.028 E2.94181
G1 X107.047 Y105.063 E2.97242
G1 X106.613 Y106.061 E3.00304
G1 X106.083 Y107.010 E3.03365
G1 X105.461 Y107.902 E3.06427
G1 X104.755 Y108.729 E3.09488
G1 X103.970 Y109.482 E3.12549
G1 X103.116 Y110.152 E3.15606
G1 X102.420 Y110.607 E3.17946
G1 X101.463 Y111.120 E3.21004
G1 X100.459 Y111.537 E3.24065
G1 X99.418 Y111.852 E3.27126
G1 X98.351 Y112.063 E3.30188
G1 X97.269 Y112.168 E3.33249
G1 X96.181 Y112.165 E3.36311
G1 X95.099 Y112.055 E3.39373
G1 X94.033 Y111.838 E3.42434
G1 X92.994 Y111.517 E3.45496
G1 X91.992 Y111.095 E3.48558
G1 X91.036 Y110.576 E3.51620
G1 X90.136 Y109.966 E3.54681
G1 X89.301 Y109.269 E3.57743
G1 X88.538 Y108.493 E3.60805
G1 X87.856 Y107.646 E3.63867
G1 X87.261 Y106.736 E3.66929
G1 X86.759 Y105.771 E3.69991
G1 X86.355 Y104.761 E3.73052
G1 X86.052 Y103.717 E3.76114
G1 X85.854 Y102.647 E3.79176
G1 X85.762 Y101.564 E3.82238
G1 X85.778 Y100.476 E3.85299
G1 X85.902 Y99.396 E3.88361
G1 X86.131 Y98.333 E3.91423
G1 X86.442 Y97.369 E3.94273
G1 E1.94273 F1680.00000
G92 E0
G1 X96.334 Y86.686 F12000.000
G1 E2.00000 F1680.00000
G1 X95.595 Y85.889 E2.03061 F1200.000
G1 X94.938 Y85.022 E2.06123
G1 X94.370 Y84.094 E2.09184
G1 X93.897 Y83.117 E2.12241
G1 X93.602 Y82.340 E2.14582
G1 X93.305 Y81.295 E2.17639
G1 X93.113 Y80.225 E2.20700
G1 X93.027 Y79.141 E2.23761
G1 X93.049 Y78.054 E2.26823
G1 X93.178 Y76.974 E2.29884
G1 X93.413 Y75.912 E2.32946
G1 X93.752 Y74.879 E2.36007
G1 X94.191 Y73.884 E2.39069
G1 X94.726 Y72.937 E2.42131
G1 X95.353 Y72.048 E2.45192
G1 X96.064 Y71.225 E2.48254
G1 X96.852 Y70.476 E2.51316
G1 X97.711 Y69.809 E2.54378
G1 X98.632 Y69.230 E2.57439
G1 X99.605 Y68.745 E2.60501
G1 X100.622 Y68.358 E2.63563
G1 X101.672 Y68.073 E2.66625
G1 X102.744 Y67.894 E2.69686
G1 X103.565 Y67.837 E2.72002
G1 X103.830 Y67.821 E2.72751 F1200.000
G1 X104.917 Y67.856 E2.75810
G1 X105.995 Y67.998 E2.78872
G1 X107.054 Y68.246 E2.81934
G1 X108.083 Y68.597 E2.84996
G1 X109.073 Y69.048 E2.88057
G1 X110.013 Y69.595 E2.91119
G1 X110.894 Y70.232 E2.94181
G1 X111.709 Y70.953 E2.97242
G1 X112.448 Y71.751 E3.00304
G1 X113.104 Y72.617 E3.03365
G1 X113.672 Y73.545 E3.06426
G1 X114.146 Y74.524 E3.09488
G1 X114.519 Y75.543 E3.12544
G1 X114.737 Y76.346 E3.14885
G1 X114.929 Y77.414 E3.17942
G1 X115.015 Y78.498 E3.21003
G1 X114.993 Y79.586 E3.24065
G1 X114.864 Y80.665 E3.27126
G1 X114.629 Y81.727 E3.30188
G1 X114.290 Y82.761 E3.33249
G1 X113.851 Y83.756 E3.36311
G1 X113.316 Y84.702 E3.39373
G1 X112.690 Y85.591 E3.42434
G1 X111.979 Y86.414 E3.45496
G1 X111.190 Y87.163 E3.48558
G1 X110.331 Y87.830 E3.51620
G1 X109.410 Y88.409 E3.54682
G1 X108.437 Y88.895 E3.57743
G1 X107.420 Y89.282 E3.60805
G1 X106.371 Y89.566 E3.63867
G1 X105.298 Y89.746 E3.66929
G1 X104.213 Y89.818 E3.69991
G1 X103.126 Y89.783 E3.73053
G1 X102.047 Y89.641 E3.76114
G1 X100.989 Y89.393 E3.79176
G1 X99.959 Y89.042 E3.82238
G1 X98.970 Y88.591 E3.85300
G1 X98.030 Y88.044 E3.88361
G1 X97.148 Y87.407 E3.91423
G1 X96.390 Y86.736 E3.94273
G1 E1.94273 F1680.00000
G92 E0
G1 X90.106 Y74.742 F12000.000
G1 E2.00000 F1680.00000
G1 X89.119 Y75.198 E2.03061 F1200.000
G1 X88.092 Y75.555 E2.06123
G1 X87.034 Y75.809 E2.09184
G1 X85.958 Y75.956 E2.12241
G1 X85.128 Y75.997 E2.14582
G1 X84.043 Y75.956 E2.17639
G1 X82.966 Y75.809 E2.20700
G1 X81.908 Y75.555 E2.23761
G1 X80.881 Y75.198 E2.26823
G1 X79.894 Y74.742 E2.29884
G1 X78.957 Y74.190 E2.32946
G1 X78.079 Y73.549 E2.36007
G1 X77.268 Y72.824 E2.39069
G1 X76.533 Y72.022 E2.42131
G1 X75.881 Y71.152 E2.45192
G1 X75.318 Y70.221 E2.48254
G1 X74.850 Y69.240 E2.51316
G1 X74.481 Y68.216 E2.54378
G1 X74.214 Y67.162 E2.57439
G1 X74.053 Y66.086 E2.60501
G1 X74.000 Y65.000 E2.63563
G1 X74.053 Y63.914 E2.66625
G1 X74.214 Y62.838 E2.69687
G1 X74.481 Y61.784 E2.72749
G1 X74.850 Y60.760 E2.75810
G1 X75.318 Y59.779 E2.78872
G1 X75.881 Y58.848 E2.81934
G1 X76.533 Y57.978 E2.84996
G1 X77.268 Y57.176 E2.88057
G1 X78.079 Y56.451 E2.91119
G1 X78.957 Y55.810 E2.94181
G1 X79.894 Y55.258 E2.97242
G1 X80.881 Y54.802 E3.00304
G1 X81.908 Y54.445 E3.03365
G1 X82.966 Y54.191 E3.06426
G1 X84.042 Y54.044 E3.09484
G1 X84.872 Y54.003 E3.11824 F1200.000
G1 X85.957 Y54.044 E3.14881
G1 X87.034 Y54.191 E3.17942
G1 X88.092 Y54.445 E3.21003
G1 X89.119 Y54.802 E3.24065
G1 X90.106 Y55.258 E3.27126
G1 X91.043 Y55.810 E3.30188
G1 X91.921 Y56.451 E3.33249
G1 X92.732 Y57.176 E3.36311
G1 X93.467 Y57.978 E3.39373
G1 X94.119 Y58.848 E3.42434
G1 X94.682 Y59.779 E3.45496
G1 X95.150 Y60.760 E3.48558
G1 X95.519 Y61.784 E3.51620
G1 X95.786 Y62.838 E3.54682
G1 X95.947 Y63.914 E3.57743
G1 X96.000 Y65.000 E3.60805
G1 X95.947 Y66.086 E3.63867
G1 X95.786 Y67.162 E3.66929
G1 X95.519 Y68.216 E3.69991
G1 X95.150 Y69.240 E3.73053
G1 X94.682 Y70.221 E3.76114
G1 X94.119 Y71.152 E3.79176
G1 X93.467 Y72.022 E3.82238
G1 X92.732 Y72.824 E3.85300
G1 X91.921 Y73.549 E3.88361
G1 X91.043 Y74.190 E3.91423
G1 X90.171 Y74.704 E3.94273
G1 E1.94273 F1680.00000
G92 E0
G1 X76.822 Y76.974 F12000.000
G1 E2.00000 F1680.00000
G1 X76.951 Y78.054 E2.03061 F1200.000
G1 X76.973 Y79.141 E2.06123
G1 X76.887 Y80.225 E2.09184
G1 X76.695 Y81.294 E2.12241
G1 X76.477 Y82.096 E2.14582
G1 X76.103 Y83.116 E2.17639
G1 X75.630 Y84.094 E2.20700
G1 X75.062 Y85.022 E2.23761
G1 X74.405 Y85.889 E2.26823
G1 X73.666 Y86.686 E2.29884
G1 X72.852 Y87.407 E2.32946
G1 X71.970 Y88.044 E2.36007
G1 X71.030 Y88.591 E2.39069
G1 X70.041 Y89.042 E2.42131
G1 X69.011 Y89.393 E2.45192
G1 X67.953 Y89.641 E2.48254
G1 X66.874 Y89.783 E2.51316
G1 X65.787 Y89.818 E2.54378
G1 X64.702 Y89.746 E2.57439
G1 X63.629 Y89.566 E2.60501
G1 X62.580 Y89.282 E2.63563
G1 X61.563 Y88.895 E2.66625
G1 X60.590 Y88.409 E2.69687
G1 X59.669 Y87.830 E2.72749
G1 X58.810 Y87.163 E2.75810
G1 X58.021 Y86.414 E2.78872
G1 X57.310 Y85.591 E2.81934
G1 X56.684 Y84.702 E2.84996
G1 X56.149 Y83.756 E2.88057
G1 X55.710 Y82.761 E2.91119
G1 X55.371 Y81.727 E2.94181
G1 X55.136 Y80.665 E2.97242
G1 X55.007 Y79.586 E3.00304
G1 X54.985 Y78.498 E3.03365
G1 X55.071 Y77.414 E3.06426
G1 X55.263 Y76.344 E3.09488
G1 X55.560 Y75.298 E3.12549
G1 X55.959 Y74.287 E3.15610
G1 X56.456 Y73.319 E3.18671
G1 X57.046 Y72.406 E3.21732
G1 X57.722 Y71.557 E3.24787
G1 X58.292 Y70.952 E3.27128
G1 X59.106 Y70.232 E3.30186
G1 X59.987 Y69.595 E3.33248
G1 X60.927 Y69.048 E3.36309
G1 X61.917 Y68.597 E3.39371
G1 X62.946 Y68.246 E3.42433
G1 X64.005 Y67.998 E3.45495
G1 X65.082 Y67.856 E3.48553
G1 X65.348 Y67.845 E3.49302
G1 X66.171 Y67.821 E3.51619 F1200.000
G1 X67.256 Y67.894 E3.54680
G1 X68.328 Y68.073 E3.57742
G1 X69.378 Y68.358 E3.60804
G1 X70.395 Y68.745 E3.63865
G1 X71.368 Y69.230 E3.66927
G1 X72.289 Y69.809 E3.69989
G1 X73.148 Y70.476 E3.73051
G1 X73.936 Y71.225 E3.76113
G1 X74.647 Y72.048 E3.79174
G1 X75.274 Y72.937 E3.82236
G1 X75.809 Y73.884 E3.85298
G1 X76.248 Y74.879 E3.88360
G1 X76.587 Y75.912 E3.91421
G1 X76.806 Y76.901 E3.94272
G1 E1.94272 F1680.00000
G92 E0
G1 X90.183 Y50.900 F12000.000
G1 E2.00000 F1680.00000
G1 X90.557 Y50.951 E2.01063 F1200.000
G1 X92.384 Y51.300 E2.06300
G1 X94.190 Y51.747 E2.11538
G1 X95.969 Y52.291 E2.16775
G1 X97.716 Y52.930 E2.22012
G1 X99.427 Y53.662 E2.27249
G1 X101.095 Y54.485 E2.32486
G1 X102.716 Y55.397 E2.37721
G1 X104.482 Y56.530 E2.43629
G1 X105.799 Y57.476 E2.48195
G1 X107.253 Y58.638 E2.53433
G1 X108.641 Y59.876 E2.58670
G1 X109.961 Y61.186 E2.63906
G1 X111.363 Y62.747 E2.69813
G1 X112.524 Y64.200 E2.75048
G1 X113.605 Y65.714 E2.80285
G1 X114.603 Y67.284 E2.85522
G1 X115.515 Y68.905 E2.90759
G1 X116.338 Y70.573 E2.95996
G1 X117.070 Y72.284 E3.01233
G1 X117.709 Y74.031 E3.06470
G1 X118.253 Y75.810 E3.11707
G1 X118.700 Y77.616 E3.16945
G1 X119.006 Y79.209 E3.21511
G1 X119.299 Y81.287 E3.27420
G1 X119.450 Y83.140 E3.32655
G1 X119.500 Y85.000 E3.37892
G1 X119.450 Y86.860 E3.43129
G1 X119.299 Y88.713 E3.48364
G1 X119.006 Y90.791 E3.54273
G1 X118.700 Y92.384 E3.58839
G1 X118.253 Y94.190 E3.64077
G1 X117.709 Y95.969 E3.69314
G1 X117.070 Y97.716 E3.74551
G1 X116.338 Y99.427 E3.79788
G1 X115.515 Y101.095 E3.85025
G1 X114.603 Y102.716 E3.90262
G1 X113.605 Y104.286 E3.95499
G1 X112.524 Y105.800 E4.00736
G1 X111.363 Y107.253 E4.05972
G1 X109.961 Y108.814 E4.11878
G1 X108.641 Y110.124 E4.17114
G1 X107.253 Y111.362 E4.22351
G1 X105.800 Y112.524 E4.27588
G1 X104.286 Y113.605 E4.32825
G1 X102.716 Y114.603 E4.38062
G1 X101.095 Y115.515 E4.43299
G1 X99.426 Y116.338 E4.48536
G1 X97.936 Y116.979 E4.53103
G1 X95.969 Y117.710 E4.59011
G1 X94.190 Y118.253 E4.64246
G1 X92.384 Y118.700 E4.69484
