; generated by Slic3r 1.2.6 on 2015-05-01 at 21:39:12

; external perimeters extrusion width = 0.50mm
; perimeters extrusion width = 0.50mm
; infill extrusion width = 0.50mm
; solid infill extrusion width = 0.50mm
; top infill extrusion width = 0.50mm

M104 S190 ; set temperature
G28 ; home all axes
G1 Z15 F120 ; lift nozzle
M109 S190 ; wait for temperature to be reached
G21 ; set units to millimeters
G90 ; use absolute coordinates
M82 ; use absolute distances for extrusion
G92 E0
M106 S102
G1 E-2.00000 F1680.00000
G92 E0
G1 Z0.200 F12000.000
G1 X23.640 Y32.514 F12000.000
G1 E2.00000 F1680.00000
G1 X25.139 Y31.869 E2.04595 F1200.000
G1 X25.739 Y31.701 E2.06347
G1 X27.426 Y31.290 E2.11236
G1 X28.031 Y31.172 E2.12971
G1 X32.031 Y30.583 E2.24353
G1 X33.000 Y30.513 E2.27089
G1 X111.000 Y30.513 E4.46674
G1 X113.264 Y30.910 E4.53145
G1 X115.367 Y32.146 E4.60013 F1200.000
G1 X147.367 Y59.979 E5.79407
G1 X148.815 Y61.764 E5.85878
G1 X149.654 Y65.000 E5.95289
G1 X149.654 Y105.000 E7.07896
G1 X149.258 Y107.264 E7.14367
G1 X147.367 Y110.021 E7.23778
G1 X115.367 Y137.854 E8.43172
G1 X113.398 Y139.040 E8.49643
G1 X111.000 Y139.487 E8.56511
G1 X33.000 Y139.487 E10.76096
G1 X32.031 Y139.417 E10.78831
G1 X28.031 Y138.828 E10.90214
G1 X27.426 Y138.710 E10.91948
G1 X25.739 Y138.299 E10.96837
G1 X25.139 Y138.131 E10.98590
G1 X23.076 Y137.117 E11.05061
G1 X21.482 Y135.461 E11.11532
G1 X20.546 Y133.362 E11.18003
G1 X20.346 Y131.742 E11.22598
G1 X20.346 Y38.258 E13.85774
G1 X20.742 Y35.994 E13.92245
G1 X21.886 Y34.000 E13.98716
G1 X23.583 Y32.562 E14.04976
G1 E12.04976 F1680.00000
G92 E0
G1 X73.316 Y97.576 F12000.000
G1 E2.00000 F1680.00000
G1 X73.709 Y97.325 E2.00874 F900.000
G1 X74.176 Y97.179 E2.01790
G1 X74.614 Y97.152 E2.02611 F900.000
G1 X75.070 Y97.238 E2.03482
G1 X75.491 Y97.435 E2.04353
G1 X75.850 Y97.732 E2.05227
G1 X76.132 Y98.131 E2.06142
G1 X76.294 Y98.539 E2.06964
G1 X76.352 Y99.000 E2.07835
G1 X76.292 Y99.468 E2.08718
G1 X76.116 Y99.903 E2.09598
G1 X75.858 Y100.258 E2.10420
G1 X75.498 Y100.560 E2.11301
G1 X75.072 Y100.761 E2.12183
G1 X74.610 Y100.849 E2.13064
G1 X74.143 Y100.817 E2.13942
G1 X73.722 Y100.680 E2.14771
G1 X73.325 Y100.431 E2.15649
G1 X72.992 Y100.072 E2.16566
G1 X72.781 Y99.687 E2.17388
G1 X72.663 Y99.237 E2.18261
G1 X72.667 Y98.748 E2.19177
G1 X72.776 Y98.323 E2.19999
G1 X72.999 Y97.915 E2.20869
G1 X73.265 Y97.631 E2.21600
G1 X73.257 Y97.113 F12000.000
G1 X74.540 Y74.841 F12000.000
G1 X74.151 Y74.819 E2.22329 F900.000
G1 X73.713 Y74.677 E2.23191
G1 X73.325 Y74.431 E2.24052
G1 X72.998 Y74.083 E2.24948
G1 X72.778 Y73.682 E2.25803
G1 X72.662 Y73.231 E2.26676
G1 X72.669 Y72.744 E2.27590
G1 X72.778 Y72.319 E2.28412
G1 X73.001 Y71.912 E2.29282
G1 X73.319 Y71.573 E2.30152
G1 X73.712 Y71.324 E2.31025
G1 X74.178 Y71.179 E2.31939
G1 X74.616 Y71.152 E2.32760 F900.000
G1 X75.072 Y71.239 E2.33630
G1 X75.492 Y71.436 E2.34500
G1 X75.851 Y71.733 E2.35374
G1 X76.132 Y72.132 E2.36287
G1 X76.294 Y72.539 E2.37109
G1 X76.352 Y73.001 E2.37980
G1 X76.289 Y73.474 E2.38875
G1 X76.120 Y73.898 E2.39730
G1 X75.850 Y74.268 E2.40588
G1 X75.477 Y74.572 E2.41490
G1 X75.061 Y74.764 E2.42350
G1 X74.615 Y74.845 E2.43198
G1 X74.349 Y75.180 F12000.000
G1 E0.43198 F1680.00000
G92 E0
G1 X138.662 Y73.231 F12000.000
G1 E2.00000 F1680.00000
G1 X138.669 Y72.744 E2.00914 F900.000
G1 X138.778 Y72.319 E2.01736
G1 X139.001 Y71.912 E2.02605
G1 X139.319 Y71.573 E2.03475
G1 X139.712 Y71.324 E2.04349
G1 X140.178 Y71.179 E2.05263
G1 X140.616 Y71.152 E2.06084 F900.000
G1 X141.072 Y71.239 E2.06954
G1 X141.492 Y71.436 E2.07824
G1 X141.851 Y71.733 E2.08697
G1 X142.132 Y72.132 E2.09611
G1 X142.294 Y72.539 E2.10433
G1 X142.352 Y73.001 E2.11304
G1 X142.289 Y73.474 E2.12198
G1 X142.120 Y73.898 E2.13054
G1 X141.850 Y74.268 E2.13912
G1 X141.477 Y74.572 E2.14814
G1 X141.061 Y74.764 E2.15673
G1 X140.633 Y74.846 E2.16488
G1 X140.151 Y74.819 E2.17393
G1 X139.713 Y74.677 E2.18255
G1 X139.325 Y74.431 E2.19116
G1 X138.998 Y74.083 E2.20012
G1 X138.778 Y73.682 E2.20867
G1 X138.681 Y73.304 E2.21600
G1 X138.223 Y73.020 F12000.000
G1 E0.21600 F1680.00000
G92 E0
G1 X106.792 Y72.998 F12000.000
G1 E2.00000 F1680.00000
G1 X106.716 Y73.580 E2.01099 F900.000
G1 X106.506 Y74.106 E2.02159
G1 X106.174 Y74.564 E2.03220
G1 X105.738 Y74.927 E2.04283
G1 X105.224 Y75.173 E2.05351
G1 X104.637 Y75.287 E2.06471
G1 X104.066 Y75.249 E2.07544
G1 X103.552 Y75.082 E2.08557
G1 X103.047 Y74.772 E2.09667
G1 X102.654 Y74.356 E2.10740
G1 X102.377 Y73.859 E2.11807
G1 X102.226 Y73.275 E2.12936
G1 X102.229 Y72.701 E2.14012
G1 X102.373 Y72.149 E2.15081
G1 X102.650 Y71.650 E2.16150
G1 X103.030 Y71.244 E2.17192
G1 X103.535 Y70.923 E2.18313
G1 X104.067 Y70.750 E2.19360
G1 X104.631 Y70.714 E2.20420 F900.000
G1 X105.215 Y70.823 E2.21533
G1 X105.735 Y71.070 E2.22611
G1 X106.174 Y71.436 E2.23683
G1 X106.509 Y71.899 E2.24754
G1 X106.713 Y72.413 E2.25789
G1 X106.782 Y72.924 E2.26755
G1 X106.350 Y72.982 F12000.000
G1 X106.291 Y73.469 E2.27675 F900.000
G1 X106.122 Y73.894 E2.28531
G1 X105.853 Y74.264 E2.29388
G1 X105.501 Y74.558 E2.30247
G1 X105.086 Y74.756 E2.31108
G1 X104.609 Y74.849 E2.32019
G1 X104.149 Y74.818 E2.32883
G1 X103.736 Y74.684 E2.33697
G1 X103.324 Y74.431 E2.34603
G1 X103.008 Y74.096 E2.35466
G1 X102.784 Y73.695 E2.36325
G1 X102.662 Y73.221 E2.37244
G1 X102.664 Y72.758 E2.38111
G1 X102.781 Y72.312 E2.38975
G1 X103.004 Y71.908 E2.39840
G1 X103.310 Y71.582 E2.40677
G1 X103.722 Y71.321 E2.41591
G1 X104.149 Y71.182 E2.42433
G1 X104.605 Y71.152 E2.43288 F900.000
G1 X105.079 Y71.241 E2.44192
G1 X105.498 Y71.440 E2.45062
G1 X105.854 Y71.736 E2.45929
G1 X106.124 Y72.111 E2.46794
G1 X106.288 Y72.524 E2.47627
G1 X106.340 Y72.908 E2.48353
G1 X106.766 Y73.242 F12000.000
G1 X108.228 Y72.919 F12000.000
G1 X108.229 Y72.701 E2.48761 F900.000
G1 X108.373 Y72.149 E2.49831
G1 X108.650 Y71.650 E2.50899
G1 X109.030 Y71.244 E2.51941
G1 X109.535 Y70.923 E2.53062
G1 X110.067 Y70.750 E2.54110
G1 X110.631 Y70.714 E2.55170 F900.000
G1 X111.215 Y70.823 E2.56283
G1 X111.735 Y71.070 E2.57361
G1 X112.174 Y71.436 E2.58433
G1 X112.509 Y71.899 E2.59504
G1 X112.713 Y72.413 E2.60538
G1 X112.792 Y72.998 E2.61645
G1 X112.716 Y73.580 E2.62744
G1 X112.506 Y74.106 E2.63804
G1 X112.174 Y74.564 E2.64865
G1 X111.738 Y74.927 E2.65928
G1 X111.224 Y75.173 E2.66996
G1 X110.637 Y75.287 E2.68116
G1 X110.066 Y75.249 E2.69189
G1 X109.552 Y75.082 E2.70202
G1 X109.047 Y74.772 E2.71312
G1 X108.654 Y74.356 E2.72385
G1 X108.377 Y73.859 E2.73452
G1 X108.226 Y73.275 E2.74581
G1 X108.227 Y72.994 E2.75108
G1 X108.663 Y72.996 F12000.000
G1 X108.664 Y72.758 E2.75554 F900.000
G1 X108.781 Y72.312 E2.76419
G1 X109.004 Y71.908 E2.77283
G1 X109.310 Y71.582 E2.78120
G1 X109.722 Y71.321 E2.79035
G1 X110.149 Y71.182 E2.79877
G1 X110.605 Y71.152 E2.80732 F900.000
G1 X111.079 Y71.241 E2.81636
G1 X111.498 Y71.440 E2.82505
G1 X111.854 Y71.736 E2.83372
G1 X112.124 Y72.111 E2.84238
G1 X112.288 Y72.524 E2.85071
G1 X112.352 Y72.999 E2.85970
G1 X112.291 Y73.469 E2.86858
G1 X112.122 Y73.894 E2.87714
G1 X111.853 Y74.264 E2.88571
G1 X111.501 Y74.558 E2.89430
G1 X111.086 Y74.756 E2.90291
G1 X110.609 Y74.849 E2.91202
G1 X110.149 Y74.818 E2.92066
G1 X109.736 Y74.684 E2.92880
G1 X109.324 Y74.431 E2.93786
G1 X109.008 Y74.096 E2.94649
G1 X108.784 Y73.695 E2.95509
G1 X108.662 Y73.221 E2.96427
G1 X108.663 Y73.071 E2.96708
G1 X108.458 Y72.876 F12000.000
G1 E0.96708 F1680.00000
G92 E0
G1 X142.314 Y81.414 F12000.000
G1 E2.00000 F1680.00000
G1 X142.314 Y97.550 E2.30235 F900.000
G1 X141.726 Y97.064 E2.31666
G1 X141.205 Y96.820 E2.32743
G1 X140.641 Y96.713 E2.33819
G1 X140.096 Y96.748 E2.34842
G1 X139.524 Y96.927 E2.35965
G1 X139.036 Y97.238 E2.37050
G1 X138.643 Y97.658 E2.38128
G1 X138.368 Y98.162 E2.39203
G1 X138.232 Y98.691 E2.40226
G1 X138.227 Y99.291 E2.41350
G1 X138.373 Y99.850 E2.42433
G1 X138.636 Y100.329 E2.43457
G1 X139.044 Y100.770 E2.44583
G1 X139.536 Y101.077 E2.45670
G1 X140.059 Y101.247 E2.46701
G1 X140.636 Y101.287 E2.47784
G1 X141.208 Y101.179 E2.48874
G1 X141.735 Y100.930 E2.49966
G1 X142.314 Y100.444 E2.51384
G1 X142.314 Y104.314 E2.58636
G1 X72.686 Y104.314 E3.89101
G1 X72.686 Y100.382 E3.96469
G1 X73.044 Y100.770 E3.97458
G1 X73.536 Y101.077 E3.98545
G1 X74.059 Y101.247 E3.99576
G1 X74.636 Y101.287 E4.00659
G1 X75.208 Y101.179 E4.01749
G1 X75.735 Y100.930 E4.02841
G1 X76.179 Y100.558 E4.03927
G1 X76.500 Y100.116 E4.04949
G1 X76.717 Y99.579 E4.06035
G1 X76.791 Y99.001 E4.07128
G1 X76.719 Y98.430 E4.08206
G1 X76.518 Y97.923 E4.09228
G1 X76.173 Y97.433 E4.10350
G1 X75.726 Y97.064 E4.11437
G1 X75.205 Y96.820 E4.12514
G1 X74.641 Y96.713 E4.13590
G1 X74.096 Y96.748 E4.14613
G1 X73.524 Y96.927 E4.15736
G1 X73.036 Y97.238 E4.16821
G1 X72.686 Y97.613 E4.17782
G1 X72.686 Y74.387 E4.61301
G1 X73.046 Y74.770 E4.62286
G1 X73.527 Y75.074 E4.63353
G1 X74.070 Y75.251 E4.64423
G1 X74.663 Y75.284 E4.65535
G1 X75.195 Y75.182 E4.66550
G1 X75.710 Y74.944 E4.67613
G1 X76.169 Y74.570 E4.68723
G1 X76.504 Y74.110 E4.69789
G1 X76.714 Y73.585 E4.70848
G1 X76.791 Y73.002 E4.71951
G1 X76.719 Y72.430 E4.73031
G1 X76.518 Y71.923 E4.74053
G1 X76.174 Y71.435 E4.75173
G1 X75.727 Y71.065 E4.76258
G1 X75.208 Y70.821 E4.77334
G1 X74.643 Y70.713 E4.78410
G1 X74.099 Y70.748 E4.79432
G1 X73.528 Y70.925 E4.80553
G1 X73.039 Y71.235 E4.81638
G1 X72.686 Y71.612 E4.82606
G1 X72.686 Y65.686 E4.93710
G1 X142.314 Y65.686 E6.24175
G1 X142.314 Y71.551 E6.35165
G1 X141.727 Y71.065 E6.36592 F900.000
G1 X141.208 Y70.821 E6.37669
G1 X140.643 Y70.713 E6.38745
G1 X140.099 Y70.748 E6.39767
G1 X139.528 Y70.925 E6.40887
G1 X139.039 Y71.235 E6.41972
G1 X138.646 Y71.654 E6.43049
G1 X138.370 Y72.157 E6.44124
G1 X138.234 Y72.686 E6.45147
G1 X138.226 Y73.284 E6.46267
G1 X138.370 Y73.844 E6.47351
G1 X138.642 Y74.341 E6.48412
G1 X139.046 Y74.770 E6.49516
G1 X139.527 Y75.074 E6.50583
G1 X140.070 Y75.251 E6.51654
G1 X140.663 Y75.284 E6.52765
G1 X141.195 Y75.182 E6.53780
G1 X141.710 Y74.944 E6.54843
G1 X142.314 Y74.451 E6.56305
G1 X142.314 Y81.339 E6.69211
G1 X140.614 Y97.152 F12000.000
G1 X141.070 Y97.238 E6.70081 F900.000
G1 X141.491 Y97.435 E6.70952
G1 X141.850 Y97.732 E6.71826
G1 X142.132 Y98.131 E6.72741
G1 X142.294 Y98.539 E6.73563
G1 X142.352 Y99.000 E6.74434
G1 X142.292 Y99.468 E6.75317
G1 X142.116 Y99.903 E6.76198
G1 X141.858 Y100.258 E6.77019
G1 X141.498 Y100.560 E6.77900
G1 X141.072 Y100.761 E6.78782
G1 X140.610 Y100.849 E6.79663
G1 X140.143 Y100.817 E6.80541
G1 X139.722 Y100.680 E6.81370
G1 X139.325 Y100.431 E6.82248
G1 X138.992 Y100.072 E6.83165
G1 X138.781 Y99.687 E6.83988
G1 X138.663 Y99.237 E6.84860
G1 X138.667 Y98.748 E6.85776
G1 X138.776 Y98.323 E6.86599
G1 X138.999 Y97.915 E6.87469
G1 X139.316 Y97.576 E6.88339
G1 X139.709 Y97.325 E6.89213
G1 X140.176 Y97.179 E6.90129
G1 X140.539 Y97.156 E6.90810 F900.000
G1 X140.886 Y96.776 F12000.000
G1 X142.750 Y97.156 F12000.000
G1 X142.750 Y104.750 E7.05039 F720.000
G1 X72.250 Y104.750 E8.37136 F720.000
G1 X72.250 Y65.250 E9.11149
G1 X142.750 Y65.250 E10.43246
G1 X142.750 Y97.081 E11.02889
G1 X142.317 Y97.406 F12000.000
G1 X141.835 Y101.121 F12000.000
G1 X142.066 Y101.352 E11.03504 F1200.000
G1 X142.066 Y101.970 E11.04663
G1 X141.417 Y101.321 E11.06387
G1 X140.945 Y101.466 E11.07315
G1 X142.066 Y102.587 E11.10293
G1 X142.066 Y103.204 E11.11452
G1 X140.387 Y101.525 E11.15912
G1 X139.657 Y101.412 E11.17299
G1 X142.066 Y103.822 E11.23698
G1 X141.693 Y104.066 E11.24535
G1 X112.333 Y74.706 E12.02510
G1 X111.996 Y74.986 E12.03333
G1 X141.076 Y104.066 E12.80562
G1 X140.458 Y104.066 E12.81721
G1 X111.618 Y75.226 E13.58314
G1 X111.191 Y75.416 E13.59192
G1 X139.841 Y104.066 E14.35280
G1 X139.223 Y104.066 E14.36439
G1 X110.674 Y75.517 E15.12260
G1 X110.043 Y75.503 E15.13445
G1 X138.606 Y104.066 E15.89302
G1 X137.989 Y104.066 E15.90461
G1 X109.077 Y75.155 E16.67243
G1 X108.338 Y74.416 F12000.000
G1 X107.018 Y73.096 E16.70749 F1200.000
G1 X106.934 Y73.629 E16.71763
G1 X137.371 Y104.066 E17.52597
G1 X136.754 Y104.066 E17.53756
G1 X106.758 Y74.070 E18.33417
G1 X106.519 Y74.449 E18.34258
G1 X136.136 Y104.066 E19.12914
G1 X135.519 Y104.066 E19.14073
G1 X106.238 Y74.785 E19.91837
G1 X105.901 Y75.066 E19.92660
G1 X134.901 Y104.066 E20.69679
G1 X134.284 Y104.066 E20.70838
G1 X105.500 Y75.282 E21.47281
G1 X105.045 Y75.444 E21.48189
G1 X133.667 Y104.066 E22.24201
G1 X133.049 Y104.066 E22.25360
G1 X104.517 Y75.534 E23.01134
G1 X103.836 Y75.470 F12000.000
G1 X132.432 Y104.066 E23.77077 F1200.000
G1 X131.814 Y104.066 E23.78237
G1 X93.682 Y65.934 E24.79507
G1 X93.064 Y65.934 E24.80666
G1 X131.197 Y104.066 E25.81936
G1 X130.579 Y104.066 E25.83095
G1 X92.447 Y65.934 E26.84365
G1 X91.830 Y65.934 E26.85524
G1 X129.962 Y104.066 E27.86794
G1 X129.345 Y104.066 E27.87954
G1 X91.212 Y65.934 E28.89223
G1 X90.595 Y65.934 E28.90383
G1 X128.727 Y104.066 E29.91653
G1 X128.110 Y104.066 E29.92812
G1 X89.977 Y65.934 E30.94082
G1 X89.360 Y65.934 E30.95241
G1 X127.492 Y104.066 E31.96511
G1 X126.875 Y104.066 E31.97671
G1 X88.742 Y65.934 E32.98940
G1 X88.125 Y65.934 E33.00100
G1 X126.257 Y104.066 E34.01370
G1 X125.640 Y104.066 E34.02529
G1 X87.508 Y65.934 E35.03799
G1 X86.890 Y65.934 E35.04958
G1 X125.023 Y104.066 E36.06228
G1 X124.405 Y104.066 E36.07388
G1 X86.273 Y65.934 E37.08657
G1 X85.655 Y65.934 E37.09817
G1 X123.788 Y104.066 E38.11087
G1 X123.170 Y104.066 E38.12246
G1 X85.038 Y65.934 E39.13516
G1 X84.420 Y65.934 E39.14675
G1 X122.553 Y104.066 E40.15945
G1 X121.935 Y104.066 E40.17105
G1 X83.803 Y65.934 E41.18374
G1 X83.186 Y65.934 E41.19534
G1 X121.318 Y104.066 E42.20804
G1 X120.701 Y104.066 E42.21963
G1 X82.568 Y65.934 E43.23233
G1 X81.951 Y65.934 E43.24392
G1 X120.083 Y104.066 E44.25662
G1 X119.466 Y104.066 E44.26822
G1 X81.333 Y65.934 E45.28091
G1 X80.716 Y65.934 E45.29251
G1 X118.848 Y104.066 E46.30521
G1 X118.231 Y104.066 E46.31680
G1 X80.098 Y65.934 E47.32950
G1 X79.481 Y65.934 E47.34109
G1 X117.613 Y104.066 E48.35379
G1 X116.996 Y104.066 E48.36538
G1 X78.864 Y65.934 E49.37808
G1 X78.246 Y65.934 E49.38968
G1 X116.379 Y104.066 E50.40237
G1 X115.761 Y104.066 E50.41397
G1 X77.629 Y65.934 E51.42667
G1 X77.011 Y65.934 E51.43826
G1 X115.144 Y104.066 E52.45096
G1 X114.526 Y104.066 E52.46255
G1 X76.394 Y65.934 E53.47525
G1 X75.776 Y65.934 E53.48685
G1 X113.909 Y104.066 E54.49954
G1 X113.291 Y104.066 E54.51114
G1 X75.159 Y65.934 E55.52384
G1 X74.542 Y65.934 E55.53543
G1 X112.674 Y104.066 E56.54813
G1 X112.057 Y104.066 E56.55972
G1 X73.924 Y65.934 E57.57242
G1 X73.307 Y65.934 E57.58402
G1 X111.439 Y104.066 E58.59671
G1 X110.822 Y104.066 E58.60831
G1 X72.934 Y66.178 E59.61451
G1 X72.934 Y66.796 E59.62611
G1 X110.204 Y104.066 E60.61591
G1 X109.587 Y104.066 E60.62751
G1 X72.934 Y67.413 E61.60092
G1 X72.934 Y68.031 E61.61251
G1 X75.565 Y70.661 E61.68238
G1 X74.749 Y70.464 E61.69813
G1 X72.934 Y68.648 E61.74635
G1 X72.934 Y69.265 E61.75795
G1 X74.169 Y70.500 E61.79074
G1 X73.690 Y70.639 E61.80010
G1 X72.934 Y69.883 E61.82018
G1 X72.934 Y70.500 E61.83178
G1 X73.270 Y70.836 E61.84070
G1 X76.830 Y71.927 F12000.000
G1 X108.969 Y104.066 E62.69423 F1200.000
G1 X108.352 Y104.066 E62.70582
G1 X77.020 Y72.734 E63.53791
G1 X76.988 Y73.320 E63.54893
G1 X107.735 Y104.066 E64.36547
G1 X107.117 Y104.066 E64.37707
G1 X76.861 Y73.810 E65.18058
G1 X76.672 Y74.238 E65.18937
G1 X106.500 Y104.066 E65.98152
G1 X105.882 Y104.066 E65.99311
G1 X76.412 Y74.596 E66.77577
G1 X76.098 Y74.899 E66.78397
G1 X105.265 Y104.066 E67.55856
G1 X104.647 Y104.066 E67.57016
G1 X75.748 Y75.167 E68.33765
G1 X75.326 Y75.362 E68.34639
G1 X104.030 Y104.066 E69.10870
G1 X103.413 Y104.066 E69.12029
G1 X74.834 Y75.488 E69.87926
G1 X74.243 Y75.514 E69.89037
G1 X102.795 Y104.066 E70.64864
G1 X102.178 Y104.066 E70.66023
G1 X73.459 Y75.348 E71.42292
G1 X72.934 Y75.440 E71.43294
G1 X101.560 Y104.066 E72.19318
G1 X100.943 Y104.066 E72.20477
G1 X72.934 Y76.057 E72.94862
G1 X72.934 Y76.675 E72.96022
G1 X100.325 Y104.066 E73.68767
G1 X99.708 Y104.066 E73.69926
G1 X72.934 Y77.292 E74.41031
G1 X72.934 Y77.909 E74.42191
G1 X99.091 Y104.066 E75.11656
G1 X98.473 Y104.066 E75.12816
G1 X72.934 Y78.527 E75.80642
G1 X72.934 Y79.144 E75.81801
G1 X97.856 Y104.066 E76.47987
