; generated by Slic3r 1.2.6 on 2015-04-29 at 16:44:35

; external perimeters extrusion width = 0.50mm
; perimeters extrusion width = 0.50mm
; infill extrusion width = 0.50mm
; solid infill extrusion width = 0.50mm
; top infill extrusion width = 0.50mm

M104 S190 ; set temperature
G28 ; home all axes
G1 Z15 F120 ; lift nozzle
M109 S190 ; wait for temperature to be reached
G21 ; set units to millimeters
G90 ; use absolute coordinates
M82 ; use absolute distances for extrusion
G92 E0
M106 S102
G1 E-2.00000 F1680.00000
G92 E0
G1 Z0.400 F12000.000
G1 X63.101 Y52.827 F12000.000
G1 E2.00000 F1680.00000
G1 X64.340 Y51.638 E2.05142 F1200.000
G1 X65.132 Y51.059 E2.08080
G1 X66.642 Y50.240 E2.13224
G1 X76.157 Y46.741 E2.43582
G1 X77.508 Y46.264 E2.47872
G1 X77.970 Y46.120 E2.49321
G1 X79.282 Y45.765 E2.53392
G1 X79.754 Y45.656 E2.54840
G1 X81.088 Y45.401 E2.58908
G1 X81.567 Y45.328 E2.60359
G1 X82.917 Y45.175 E2.64428
G1 X83.400 Y45.138 E2.65878
G1 X84.760 Y45.087 E2.69953
G1 X86.995 Y45.400 E2.76711
G1 X88.681 Y46.243 E2.82355 F1200.000
G1 X105.596 Y58.087 E3.44186
G1 X107.188 Y59.686 E3.50945
G1 X108.024 Y61.378 E3.56595
G1 X108.440 Y62.671 E3.60663
G1 X108.571 Y63.138 E3.62114
G1 X108.888 Y64.459 E3.66183
G1 X108.983 Y64.934 E3.67633
G1 X109.200 Y66.275 E3.71702
G1 X109.260 Y66.756 E3.73152
G1 X109.375 Y68.110 E3.77221
G1 X109.397 Y68.593 E3.78671
G1 X109.418 Y79.533 E4.11428
G1 X109.418 Y117.750 E5.25866
G1 X109.021 Y119.972 E5.32625
G1 X107.879 Y121.919 E5.39383
G1 X106.134 Y123.350 E5.46141
G1 X103.000 Y124.168 E5.55840
G1 X67.000 Y124.168 E6.63639
G1 X64.778 Y123.771 E6.70398
G1 X62.831 Y122.629 E6.77156
G1 X61.400 Y120.884 E6.83915
G1 X60.582 Y117.750 E6.93613
G1 X60.582 Y59.462 E8.68150
G1 X60.640 Y58.604 E8.70727
G1 X60.771 Y57.631 E8.73666
G1 X61.227 Y55.975 E8.78810
G1 X61.612 Y55.072 E8.81748
G1 X62.490 Y53.596 E8.86892
G1 X63.054 Y52.886 E8.89607
G1 E6.89607 F1680.00000
G92 E0
G1 X98.050 Y78.517 F12000.000
G1 E2.00000 F1680.00000
G1 X98.344 Y78.183 E2.01252 F1500.000
G1 X98.714 Y77.934 E2.02507
G1 X99.143 Y77.786 E2.03787
G1 X99.576 Y77.750 E2.05008 F1500.000
G1 X100.014 Y77.825 E2.06261
G1 X100.419 Y78.009 E2.07513
G1 X100.765 Y78.288 E2.08765
G1 X101.030 Y78.646 E2.10018
G1 X101.196 Y79.059 E2.11270
G1 X101.252 Y79.502 E2.12527
G1 X101.184 Y79.985 E2.13902
G1 X100.984 Y80.433 E2.15282
G1 X100.667 Y80.807 E2.16662
G1 X100.260 Y81.079 E2.18042
G1 X99.811 Y81.222 E2.19367
G1 X99.478 Y81.283 E2.20322
G1 X99.135 Y81.277 E2.21286
G1 X98.423 Y81.124 E2.23335
G1 X98.537 Y80.985 E2.23840
G1 X98.135 Y80.598 E2.25412
G1 X97.902 Y80.219 E2.26664
G1 X97.772 Y79.792 E2.27919
G1 X97.757 Y79.338 E2.29199
G1 X97.849 Y78.914 E2.30421
G1 X98.016 Y78.584 E2.31462
G1 E0.31462 F1680.00000
G92 E0
G1 X72.033 Y60.348 F12000.000
G1 E2.00000 F1680.00000
G1 X71.773 Y60.704 E2.01242 F1500.000
G1 X71.432 Y60.984 E2.02484
G1 X71.032 Y61.169 E2.03726
G1 X70.598 Y61.249 E2.04968
G1 X70.158 Y61.218 E2.06210
G1 X69.739 Y61.078 E2.07452
G1 X69.369 Y60.838 E2.08694
G1 X69.071 Y60.513 E2.09936
G1 X68.863 Y60.124 E2.11178
G1 X68.759 Y59.696 E2.12420
G1 X68.765 Y59.254 E2.13662
G1 X68.882 Y58.829 E2.14904
G1 X69.101 Y58.446 E2.16146
G1 X69.408 Y58.130 E2.17388
G1 X69.785 Y57.900 E2.18630
G1 X70.190 Y57.778 E2.19820
G1 X70.506 Y57.719 E2.20725 F1500.000
G1 X70.847 Y57.721 E2.21685
G1 X71.578 Y57.874 E2.23788
G1 X71.441 Y58.042 E2.24399
G1 X71.603 Y58.138 E2.24931
G1 X71.953 Y58.520 E2.26389
G1 X72.171 Y58.976 E2.27812
G1 X72.252 Y59.496 E2.29293
G1 X72.196 Y59.938 E2.30546
G1 X72.061 Y60.278 E2.31577
G1 E0.31577 F1680.00000
G92 E0
G1 X100.250 Y98.567 F12000.000
G1 E2.00000 F1680.00000
G1 X100.250 Y93.492 E2.14287 F1200.000
G1 X100.197 Y92.685 E2.16564
G1 X100.038 Y91.882 E2.18867
G1 X99.775 Y91.108 E2.21169
G1 X99.413 Y90.375 E2.23471
G1 X98.957 Y89.692 E2.25783
G1 X98.420 Y89.080 E2.28074
G1 X97.805 Y88.541 E2.30376
G1 X97.125 Y88.087 E2.32678
G1 X96.389 Y87.724 E2.34989
G1 X95.618 Y87.462 E2.37281
G1 X94.816 Y87.303 E2.39583
G1 X94.008 Y87.250 E2.41861
G1 X75.992 Y87.250 E2.92581
G1 X75.184 Y87.303 E2.94860
G1 X74.382 Y87.462 E2.97162
G1 X73.605 Y87.727 E2.99473
G1 X72.875 Y88.087 E3.01765
G1 X72.195 Y88.541 E3.04066
G1 X71.580 Y89.080 E3.06368
G1 X71.041 Y89.695 E3.08670
G1 X70.587 Y90.375 E3.10972
G1 X70.225 Y91.108 E3.13273
G1 X69.962 Y91.882 E3.15575
G1 X69.803 Y92.684 E3.17877
G1 X69.750 Y93.492 E3.20155
G1 X69.750 Y117.500 E3.87743
G1 X67.250 Y117.500 E3.94781
G1 X67.250 Y59.479 E5.58120
G1 X67.375 Y58.557 E5.60740
G1 X67.733 Y57.717 E5.63312
G1 X68.298 Y57.005 E5.65871
G1 X69.038 Y56.462 E5.68455
G1 X69.892 Y56.138 E5.71026
G1 X70.802 Y56.053 E5.73598
G1 X71.702 Y56.211 E5.76170
G1 X72.705 Y56.687 E5.79298
G1 X73.846 Y55.693 E5.83557
G1 X74.919 Y54.891 E5.87329
G1 X76.050 Y54.172 E5.91101
G1 X77.231 Y53.541 E5.94873
G1 X78.457 Y53.000 E5.98645
G1 X79.721 Y52.553 E6.02417
G1 X81.014 Y52.204 E6.06188
G1 X82.330 Y51.952 E6.09960
G1 X83.661 Y51.801 E6.13732
G1 X84.750 Y51.760 E6.16800
G1 X84.750 Y54.862 E6.25535
G1 X83.509 Y54.926 E6.29032 F1200.000
G1 X82.034 Y55.153 E6.33234
G1 X80.589 Y55.529 E6.37437
G1 X79.191 Y56.051 E6.41639
G1 X77.852 Y56.712 E6.45841
G1 X76.588 Y57.505 E6.50044
G1 X75.411 Y58.424 E6.54246
G1 X74.325 Y59.465 E6.58481
G1 X73.119 Y61.188 E6.64401
G1 X72.442 Y62.250 E6.67947
G1 X71.858 Y63.372 E6.71508
G1 X71.374 Y64.541 E6.75070
G1 X70.994 Y65.747 E6.78631
G1 X70.720 Y66.982 E6.82192
G1 X70.555 Y68.236 E6.85753
G1 X70.500 Y69.500 E6.89314
G1 X70.555 Y70.764 E6.92875
G1 X70.720 Y72.018 E6.96437
G1 X70.994 Y73.253 E6.99998
G1 X71.374 Y74.459 E7.03559
G1 X71.858 Y75.628 E7.07120
G1 X72.442 Y76.750 E7.10681
G1 X73.122 Y77.817 E7.14242
G1 X73.892 Y78.821 E7.17804
G1 X74.751 Y79.757 E7.21380
G1 X75.679 Y80.608 E7.24926
G1 X76.683 Y81.378 E7.28487
G1 X77.750 Y82.058 E7.32048
G1 X78.872 Y82.642 E7.35609
G1 X80.041 Y83.126 E7.39170
G1 X81.247 Y83.506 E7.42732
G1 X82.482 Y83.780 E7.46293
G1 X83.736 Y83.945 E7.49854
G1 X85.000 Y84.000 E7.53415
G1 X86.264 Y83.945 E7.56976
G1 X87.518 Y83.780 E7.60537
G1 X88.753 Y83.506 E7.64099
G1 X89.959 Y83.126 E7.67660
G1 X91.128 Y82.642 E7.71221
G1 X92.250 Y82.058 E7.74782
G1 X93.317 Y81.378 E7.78343
G1 X94.321 Y80.608 E7.81904
G1 X95.253 Y79.753 E7.85466
G1 X96.108 Y78.821 E7.89027
G1 X96.875 Y77.821 E7.92573
G1 X98.081 Y76.099 E7.98493
G1 X98.688 Y74.722 E8.02728
G1 X99.148 Y73.302 E8.06931
G1 X99.462 Y71.843 E8.11133
G1 X99.625 Y70.359 E8.15335
G1 X99.637 Y68.866 E8.19537
G1 X99.496 Y67.380 E8.23740
G1 X99.205 Y65.916 E8.27942
G1 X98.840 Y64.729 E8.31439
G1 X101.756 Y63.667 E8.40174
G1 X102.090 Y64.705 E8.43242
G1 X102.403 Y66.007 E8.47014
G1 X102.617 Y67.330 E8.50786
G1 X102.730 Y68.665 E8.54557
G1 X102.743 Y70.005 E8.58329
G1 X102.654 Y71.342 E8.62101
G1 X102.465 Y72.668 E8.65873
G1 X102.176 Y73.976 E8.69645
G1 X101.790 Y75.259 E8.73417
G1 X101.246 Y76.668 E8.77666
G1 X102.117 Y77.562 E8.81181
G1 X102.586 Y78.501 E8.84134
G1 X102.750 Y79.557 E8.87143
G1 X102.750 Y117.500 E9.93960
G1 X100.250 Y117.500 E10.00998
G1 X100.250 Y98.642 E10.54088
G1 X99.994 Y90.990 F12000.000
G1 X102.536 Y93.532 E10.64259 F2400.000
G1 X102.536 Y94.090 E10.65839
G1 X100.261 Y91.815 E10.74943
G1 X100.400 Y92.512 E10.76953
G1 X102.536 Y94.648 E10.85502
G1 X102.536 Y95.206 E10.87082
G1 X100.446 Y93.117 E10.95445
G1 X100.464 Y93.693 E10.97078
G1 X102.536 Y95.765 E11.05368
G1 X102.536 Y96.323 E11.06948
G1 X100.464 Y94.252 E11.15237
G1 X100.464 Y94.810 E11.16817
G1 X102.536 Y96.881 E11.25107
G1 X102.536 Y97.440 E11.26686
G1 X100.464 Y95.368 E11.34976
G1 X100.464 Y95.927 E11.36556
G1 X102.536 Y97.998 E11.44845
G1 X102.536 Y98.556 E11.46425
G1 X100.464 Y96.485 E11.54715
G1 X100.464 Y97.043 E11.56295
G1 X102.536 Y99.114 E11.64584
G1 X102.536 Y99.673 E11.66164
G1 X100.464 Y97.601 E11.74453
G1 X100.464 Y98.160 E11.76033
G1 X102.536 Y100.231 E11.84323
G1 X102.536 Y100.789 E11.85903
G1 X100.464 Y98.718 E11.94192
G1 X100.464 Y99.276 E11.95772
G1 X102.536 Y101.347 E12.04061
G1 X102.536 Y101.906 E12.05641
G1 X100.464 Y99.834 E12.13931
G1 X100.464 Y100.393 E12.15511
G1 X102.536 Y102.464 E12.23800
G1 X102.536 Y103.022 E12.25380
G1 X100.464 Y100.951 E12.33670
G1 X100.464 Y101.509 E12.35249
G1 X102.536 Y103.581 E12.43539
G1 X102.536 Y104.139 E12.45119
G1 X100.464 Y102.068 E12.53408
G1 X100.464 Y102.626 E12.54988
G1 X102.536 Y104.697 E12.63278
G1 X102.536 Y105.255 E12.64858
G1 X100.464 Y103.184 E12.73147
G1 X100.464 Y103.742 E12.74727
G1 X102.536 Y105.814 E12.83016
G1 X102.536 Y106.372 E12.84596
G1 X100.464 Y104.301 E12.92886
G1 X100.464 Y104.859 E12.94466
G1 X102.536 Y106.930 E13.02755
G1 X102.536 Y107.488 E13.04335
G1 X100.464 Y105.417 E13.12624
G1 X100.464 Y105.975 E13.14204
G1 X102.536 Y108.047 E13.22494
G1 X102.536 Y108.605 E13.24074
G1 X100.464 Y106.534 E13.32363
G1 X100.464 Y107.092 E13.33943
G1 X102.536 Y109.163 E13.42233
G1 X102.536 Y109.722 E13.43812
G1 X100.464 Y107.650 E13.52102
G1 X100.464 Y108.209 E13.53682
G1 X102.536 Y110.280 E13.61971
G1 X102.536 Y110.838 E13.63551
G1 X100.464 Y108.767 E13.71841
G1 X100.464 Y109.325 E13.73421
G1 X102.536 Y111.396 E13.81710
G1 X102.536 Y111.955 E13.83290
G1 X100.464 Y109.883 E13.91579
G1 X100.464 Y110.442 E13.93159
G1 X102.536 Y112.513 E14.01449
G1 X102.536 Y113.071 E14.03029
G1 X100.464 Y111.000 E14.11318
G1 X100.464 Y111.558 E14.12898
G1 X102.536 Y113.629 E14.21187
G1 X102.536 Y114.188 E14.22767
G1 X100.464 Y112.116 E14.31057
G1 X100.464 Y112.675 E14.32637
G1 X102.536 Y114.746 E14.40926
G1 X102.536 Y115.304 E14.42506
G1 X100.464 Y113.233 E14.50796
G1 X100.464 Y113.791 E14.52375
G1 X102.536 Y115.863 E14.60665
G1 X102.536 Y116.421 E14.62245
G1 X100.464 Y114.350 E14.70534
G1 X100.464 Y114.908 E14.72114
G1 X102.536 Y116.979 E14.80404
G1 X102.284 Y117.286 E14.81526
G1 X100.464 Y115.466 E14.88808
G1 X100.464 Y116.024 E14.90388
G1 X101.726 Y117.286 E14.95436
G1 X101.167 Y117.286 E14.97016
G1 X100.464 Y116.583 E14.99829
G1 E12.99829 F1680.00000
G92 E0
G1 X99.353 Y89.791 F12000.000
G1 E2.00000 F1680.00000
G1 X102.536 Y92.973 E2.12737 F2400.000
G1 X102.536 Y92.415 E2.14317
G1 X92.338 Y82.218 E2.55128
G1 X92.679 Y82.001 E2.56272
G1 X102.536 Y91.857 E2.95718
G1 X102.536 Y91.299 E2.97298
G1 X93.020 Y81.783 E3.35379
G1 X93.361 Y81.566 E3.36524
G1 X102.536 Y90.740 E3.73240
G1 X102.536 Y90.182 E3.74820
G1 X93.681 Y81.327 E4.10259
G1 X93.996 Y81.085 E4.11386
G1 X102.536 Y89.624 E4.45561
G1 X102.536 Y89.065 E4.47141
G1 X94.312 Y80.842 E4.80052
G1 X94.613 Y80.584 E4.81172
G1 X102.536 Y88.507 E5.12881
G1 X102.536 Y87.949 E5.14461
G1 X94.904 Y80.317 E5.45004
G1 X95.195 Y80.050 E5.46122
G1 X102.536 Y87.391 E5.75499
G1 X102.536 Y86.832 E5.77079
G1 X95.478 Y79.775 E6.05325
G1 X97.672 Y80.294 F12000.000
G1 X96.276 Y78.898 E6.10910 F2400.000
G1 X96.519 Y78.582 E6.12037
G1 X97.549 Y79.612 E6.16160
G1 X97.603 Y79.109 E6.17594
G1 X96.761 Y78.266 E6.20965
G1 X97.003 Y77.951 E6.22092
G1 X97.750 Y78.697 E6.25081
G1 X97.959 Y78.348 E6.26233
G1 X97.235 Y77.624 E6.29131
G1 X97.465 Y77.295 E6.30265
G1 X98.221 Y78.051 E6.33290
G1 X98.552 Y77.824 E6.34427
G1 X97.695 Y76.967 E6.37857
G1 X97.925 Y76.639 E6.38991
G1 X98.939 Y77.653 E6.43053
G1 X99.400 Y77.556 E6.44386
G1 X98.154 Y76.310 E6.49372
G1 X98.352 Y75.949 E6.50536
G1 X99.990 Y77.588 E6.57093
G1 X101.115 Y76.479 F12000.000
G1 X99.005 Y74.369 E6.65539 F2400.000
G1 X99.142 Y73.948 E6.66793
G1 X101.271 Y76.077 E6.75313
G1 X101.426 Y75.674 E6.76535
G1 X99.278 Y73.526 E6.85130
G1 X99.398 Y73.087 E6.86417
G1 X101.581 Y75.271 E6.95156
G1 X101.712 Y74.844 E6.96421
G1 X99.496 Y72.628 E7.05289
G1 X99.595 Y72.168 E7.06619
G1 X101.842 Y74.415 E7.15610
G1 X101.971 Y73.986 E7.16878
G1 X99.685 Y71.699 E7.26028
G1 X99.740 Y71.196 E7.27459
G1 X102.072 Y73.528 E7.36792
G1 X102.173 Y73.071 E7.38117
G1 X99.795 Y70.693 E7.47632
G1 X99.840 Y70.180 E7.49090
G1 X102.268 Y72.608 E7.58806
G1 X102.338 Y72.119 E7.60203
G1 X99.845 Y69.626 E7.70181
G1 X99.849 Y69.072 E7.71749
G1 X102.407 Y71.631 E7.81988
G1 X102.459 Y71.124 E7.83429
G1 X99.825 Y68.490 E7.93972
G1 X99.766 Y67.873 E7.95725
G1 X102.494 Y70.600 E8.06640
G1 X102.528 Y70.077 E8.08126
G1 X99.708 Y67.257 E8.19412
G1 X99.570 Y66.560 E8.21421
G1 X102.523 Y69.513 E8.33239
G1 X102.518 Y68.950 E8.34834
G1 X99.431 Y65.863 E8.47186
G1 X99.200 Y65.074 E8.49514
G1 X102.481 Y68.355 E8.62646
G1 X102.429 Y67.745 E8.64379
G1 X99.409 Y64.725 E8.76466
G1 X99.819 Y64.576 E8.77699
G1 X102.349 Y67.106 E8.87825
G1 X102.241 Y66.440 E8.89734
G1 X100.228 Y64.427 E8.97791
G1 X100.637 Y64.278 E8.99024
G1 X102.095 Y65.735 E9.04857
G1 X101.918 Y65.000 E9.06995
G1 X101.046 Y64.129 E9.10483
G1 X101.456 Y63.980 E9.11716
G1 X101.669 Y64.193 E9.12569
G1 X98.523 Y75.562 F12000.000
G1 X102.519 Y79.558 E9.28564 F2400.000
G1 X102.416 Y78.897 F12000.000
G1 X98.694 Y75.175 E9.43463 F2400.000
G1 X98.865 Y74.787 E9.44661
G1 X102.012 Y77.934 E9.57257
G1 X101.417 Y79.015 F12000.000
G1 X102.536 Y80.133 E9.61732 F2400.000
G1 X102.536 Y80.691 E9.63312
G1 X101.444 Y79.600 E9.67681
G1 X101.353 Y80.067 E9.69028
G1 X102.536 Y81.250 E9.73761
G1 X102.536 Y81.808 E9.75341
G1 X101.180 Y80.453 E9.80765
G1 X100.937 Y80.767 E9.81892
G1 X102.536 Y82.366 E9.88290
G1 X102.536 Y82.924 E9.89870
G1 X100.649 Y81.038 E9.97419
G1 X100.315 Y81.262 E9.98558
G1 X102.536 Y83.483 E10.07447
G1 X102.536 Y84.041 E10.09027
G1 X99.893 Y81.398 E10.19603
G1 X99.432 Y81.495 E10.20937
G1 X102.536 Y84.599 E10.33359
G1 X102.536 Y85.158 E10.34939
G1 X98.829 Y81.450 E10.49775
G1 X98.117 Y81.297 E10.51836
G1 X102.536 Y85.716 E10.69522
G1 X102.536 Y86.274 E10.71102
G1 X95.745 Y79.483 E10.98280
G1 X96.012 Y79.192 E10.99398
G1 X98.079 Y81.259 E11.07673
G1 X97.708 Y88.146 F12000.000
G1 X91.973 Y82.411 E11.30627 F2400.000
G1 X91.606 Y82.602 E11.31798
G1 X96.510 Y87.506 E11.51425
G1 X95.685 Y87.239 E11.53880
G1 X91.239 Y82.793 E11.71673
G1 X90.849 Y82.962 E11.72875
G1 X94.988 Y87.100 E11.89439
G1 X94.383 Y87.054 E11.91154
G1 X90.454 Y83.125 E12.06879
G1 X90.060 Y83.289 E12.08088
G1 X93.807 Y87.036 E12.23084
G1 X93.248 Y87.036 E12.24664
G1 X89.641 Y83.429 E12.39100
G1 X89.217 Y83.562 E12.40359
G1 X92.690 Y87.036 E12.54259
G1 X92.132 Y87.036 E12.55839
G1 X88.792 Y83.696 E12.69204
G1 X88.339 Y83.801 E12.70521
G1 X91.573 Y87.036 E12.83466
G1 X91.015 Y87.036 E12.85046
G1 X87.882 Y83.902 E12.97586
G1 X87.420 Y83.999 E12.98921
G1 X90.457 Y87.036 E13.11075
G1 X89.899 Y87.036 E13.12655
G1 X86.927 Y84.064 E13.24549
G1 X86.433 Y84.129 E13.25957
G1 X89.340 Y87.036 E13.37591
G1 X88.782 Y87.036 E13.39171
G1 X85.918 Y84.171 E13.50635
G1 X85.383 Y84.195 E13.52150
G1 X88.224 Y87.036 E13.63520
G1 X87.666 Y87.036 E13.65100
G1 X84.842 Y84.212 E13.76402
G1 X84.258 Y84.186 E13.78056
G1 X87.107 Y87.036 E13.89460
G1 X86.549 Y87.036 E13.91040
G1 X83.674 Y84.161 E14.02546
G1 X83.036 Y84.081 E14.04366
G1 X85.991 Y87.036 E14.16192
G1 X85.432 Y87.036 E14.17772
G1 X82.393 Y83.996 E14.29936
G1 X81.681 Y83.842 E14.31998
G1 X84.874 Y87.036 E14.44777
G1 X84.316 Y87.036 E14.46357
G1 X80.947 Y83.667 E14.59841
G1 X80.132 Y83.410 E14.62260
G1 X83.758 Y87.036 E14.76772
G1 X83.199 Y87.036 E14.78352
G1 X79.225 Y83.061 E14.94258
G1 X78.185 Y82.580 F12000.000
G1 X82.641 Y87.036 E15.12090 F2400.000
G1 X82.083 Y87.036 E15.13670
G1 X76.862 Y81.814 E15.34566
G1 X77.058 Y87.036 F12000.000
G1 X67.464 Y77.442 E15.72963 F2400.000
G1 X67.464 Y78.000 E15.74543
G1 X76.500 Y87.036 E16.10705
G1 X75.949 Y87.043 E16.12264
G1 X67.464 Y78.558 E16.46222
G1 X67.464 Y79.116 E16.47802
G1 X75.425 Y87.078 E16.79664
G1 X74.938 Y87.148 E16.81058
G1 X67.464 Y79.675 E17.10968
G1 X67.464 Y80.233 E17.12548
G1 X74.472 Y87.241 E17.40595
G1 X74.047 Y87.374 E17.41856
G1 X67.464 Y80.791 E17.68200
G1 X67.464 Y81.350 E17.69780
G1 X73.630 Y87.515 E17.94456
G1 X73.251 Y87.694 E17.95644
G1 X67.464 Y81.908 E18.18801
G1 X67.464 Y82.466 E18.20381
G1 X72.877 Y87.878 E18.42042
G1 X72.535 Y88.095 E18.43187
G1 X67.464 Y83.024 E18.63480
G1 X67.464 Y83.583 E18.65060
G1 X72.200 Y88.319 E18.84013
G1 X71.891 Y88.568 E18.85137
G1 X67.464 Y84.141 E19.02854
G1 X67.464 Y84.699 E19.04434
G1 X71.594 Y88.829 E19.20961
G1 X71.316 Y89.109 E19.22078
G1 X67.464 Y85.257 E19.37491
