; generated by Slic3r 1.2.6 on 2015-05-11 at 23:16:27

; external perimeters extrusion width = 0.50mm
; perimeters extrusion width = 0.50mm
; infill extrusion width = 0.50mm
; solid infill extrusion width = 0.50mm
; top infill extrusion width = 0.50mm

M104 S190 ; set temperature
G28 ; home all axes
G1 Z15 F120 ; lift nozzle
M109 S190 ; wait for temperature to be reached
G21 ; set units to millimeters
G90 ; use absolute coordinates
M82 ; use absolute distances for extrusion
G92 E0
M106 S255
G1 E-2.00000 F1680.00000
G92 E0
G1 Z0.350 F12000.000
G1 X66.676 Y76.651 F12000.000
G1 E2.00000 F1680.00000
G1 X80.082 Y65.194 E2.49646 F600.000
G1 X80.815 Y64.652 E2.52212
G1 X81.175 Y64.424 E2.53411
G1 X82.635 Y63.737 E2.57953
G1 X83.040 Y63.605 E2.59153
G1 X84.625 Y63.303 E2.63695
G1 X85.050 Y63.276 E2.64894
G1 X86.660 Y63.378 E2.69436
G1 X87.079 Y63.457 E2.70636 F600.000
G1 X88.613 Y63.956 E2.75178
G1 X88.999 Y64.137 E2.76378
G1 X90.361 Y65.002 E2.80920
G1 X90.689 Y65.273 E2.82119
G1 X91.502 Y66.078 E2.85339
G1 X104.284 Y81.200 E3.41081
G1 X104.575 Y81.572 E3.42410
G1 X104.973 Y82.120 E3.44316
G1 X105.750 Y83.533 E3.48858
G1 X105.999 Y84.163 E3.50763
G1 X106.401 Y85.725 E3.55305
G1 X106.485 Y86.397 E3.57210
G1 X106.485 Y88.010 E3.61752
G1 X106.401 Y88.682 E3.63657
G1 X105.999 Y90.244 E3.68199
G1 X105.750 Y90.874 E3.70105
G1 X104.973 Y92.287 E3.74647
G1 X104.575 Y92.835 E3.76552
G1 X103.632 Y93.873 E3.80502
G1 X91.513 Y104.589 E4.26042
G1 X91.024 Y104.998 E4.27837
G1 X89.662 Y105.863 E4.32379
G1 X89.276 Y106.044 E4.33579
G1 X87.742 Y106.543 E4.38121
G1 X87.323 Y106.622 E4.39320
G1 X85.713 Y106.724 E4.43861
G1 X85.288 Y106.697 E4.45062
G1 X83.703 Y106.395 E4.49604
G1 X83.298 Y106.263 E4.50803
G1 X81.838 Y105.576 E4.55345
G1 X81.478 Y105.348 E4.56545
G1 X80.353 Y104.442 E4.60610
G1 X66.284 Y90.234 E5.16901
G1 X65.703 Y89.618 E5.19287
G1 X64.754 Y88.312 E5.23829
G1 X64.428 Y87.719 E5.25734
G1 X63.834 Y86.219 E5.30276
G1 X63.666 Y85.564 E5.32181
G1 X63.464 Y83.963 E5.36723
G1 X63.464 Y83.286 E5.38629
G1 X63.685 Y81.612 E5.43383
G1 X63.834 Y81.030 E5.45074
G1 X64.428 Y79.530 E5.49616
G1 X64.754 Y78.937 E5.51521
G1 X65.703 Y77.632 E5.56063
G1 X66.166 Y77.138 E5.57969
G1 X66.622 Y76.703 E5.59743
G1 E3.59743 F1680.00000
G92 E0
G1 X70.749 Y82.025 F12000.000
G1 E2.00000 F1680.00000
G1 X71.018 Y81.738 E2.01024 F600.000
G1 X71.537 Y81.410 E2.02621
G1 X72.120 Y81.220 E2.04218
G1 X72.776 Y81.190 E2.05928
G1 X73.335 Y81.296 E2.07409 F600.000
G1 X73.891 Y81.558 E2.09007
G1 X74.363 Y81.949 E2.10604
G1 X74.724 Y82.445 E2.12201
G1 X74.950 Y83.016 E2.13798
G1 X75.027 Y83.625 E2.15396
G1 X74.950 Y84.233 E2.16993
G1 X74.724 Y84.804 E2.18590
G1 X74.363 Y85.300 E2.20187
G1 X73.891 Y85.691 E2.21784
G1 X73.335 Y85.953 E2.23382
G1 X72.733 Y86.068 E2.24979
G1 X72.120 Y86.029 E2.26576
G1 X71.537 Y85.840 E2.28173
G1 X71.018 Y85.511 E2.29771
G1 X70.598 Y85.063 E2.31368
G1 X70.303 Y84.526 E2.32965
G1 X70.150 Y83.931 E2.34562
G1 X70.150 Y83.318 E2.36159
G1 X70.303 Y82.723 E2.37757
G1 X70.598 Y82.186 E2.39354
G1 X70.698 Y82.080 E2.39732
G1 X72.786 Y81.436 F12000.000
G1 X74.764 Y83.415 E2.47357 F600.000
G1 X74.763 Y84.011 E2.48983
G1 X72.188 Y81.436 E2.58908
G1 X71.717 Y81.562 E2.60238
G1 X74.639 Y84.484 E2.71498
G1 X74.436 Y84.879 E2.72707
G1 X71.326 Y81.769 E2.84693
G1 X71.006 Y82.046 E2.85847
G1 X74.164 Y85.203 E2.98016
G1 X73.847 Y85.484 E2.99169
G1 X70.722 Y82.359 E3.11210
G1 X70.510 Y82.745 E3.12409
G1 X73.450 Y85.684 E3.23736
G1 X72.977 Y85.809 E3.25067
G1 X70.387 Y83.218 E3.35051
G1 X70.373 Y83.802 E3.36642
G1 X72.388 Y85.817 E3.44409
G1 X71.380 Y85.406 F12000.000
G1 X70.759 Y84.785 E3.46802 F600.000
G1 X73.886 Y81.940 F12000.000
G1 X74.298 Y82.351 E3.48389 F600.000
G1 E1.48389 F1680.00000
G92 E0
G1 X99.754 Y86.551 F12000.000
G1 E2.00000 F1680.00000
G1 X99.848 Y87.204 E2.01716 F600.000
G1 X99.771 Y87.812 E2.03313
G1 X99.545 Y88.383 E2.04910
G1 X99.184 Y88.879 E2.06507
G1 X98.712 Y89.270 E2.08105
G1 X98.156 Y89.532 E2.09702
G1 X97.554 Y89.647 E2.11299
G1 X96.941 Y89.608 E2.12896
G1 X96.358 Y89.419 E2.14494
G1 X95.839 Y89.090 E2.16091
G1 X95.419 Y88.642 E2.17688
G1 X95.124 Y88.105 E2.19285
G1 X94.971 Y87.510 E2.20882
G1 X94.971 Y86.897 E2.22480
G1 X95.124 Y86.302 E2.24077
G1 X95.419 Y85.765 E2.25674
G1 X95.839 Y85.317 E2.27271
G1 X96.358 Y84.988 E2.28869
G1 X96.941 Y84.799 E2.30466
G1 X97.597 Y84.769 E2.32176
G1 X98.156 Y84.875 E2.33657 F600.000
G1 X98.712 Y85.137 E2.35254
G1 X99.184 Y85.528 E2.36851
G1 X99.545 Y86.024 E2.38449
G1 X99.726 Y86.481 E2.39729
G1 X99.119 Y85.930 F12000.000
G1 X98.707 Y85.518 E2.41316 F600.000
G1 X97.607 Y85.015 F12000.000
G1 X99.585 Y86.994 E2.48941 F600.000
G1 X99.585 Y87.590 E2.50567
G1 X97.009 Y85.015 E2.60492
G1 X96.538 Y85.141 E2.61821
G1 X99.460 Y88.063 E2.73081
G1 X99.257 Y88.458 E2.74291
G1 X96.147 Y85.347 E2.86277
G1 X95.827 Y85.625 E2.87431
G1 X98.985 Y88.782 E2.99599
G1 X98.668 Y89.063 E3.00752
G1 X95.543 Y85.938 E3.12794
G1 X95.331 Y86.324 E3.13992
G1 X98.271 Y89.263 E3.25319
G1 X97.798 Y89.388 E3.26651
G1 X95.208 Y86.797 E3.36635
G1 X95.194 Y87.381 E3.38226
G1 X97.209 Y89.396 E3.45992
G1 X96.201 Y88.985 F12000.000
G1 X95.580 Y88.364 E3.48386 F600.000
G1 E1.48386 F1680.00000
G92 E0
G1 Z0.350 F12000.000
G1 X84.096 Y72.102 F12000.000
G1 E2.00000 F1680.00000
G1 X84.001 Y71.930 E2.00512 F600.000
G1 X83.911 Y71.578 E2.01457
G1 X83.911 Y71.215 E2.02401
G1 X84.001 Y70.863 E2.03346
G1 X84.176 Y70.545 E2.04291
G1 X84.424 Y70.281 E2.05236
G1 X84.731 Y70.086 E2.06181
G1 X85.076 Y69.974 E2.07125
G1 X85.438 Y69.951 E2.08070
G1 X85.787 Y70.018 E2.08995
G1 X86.124 Y70.174 E2.09960 F600.000
G1 X86.403 Y70.405 E2.10904
G1 X86.616 Y70.699 E2.11848
G1 X86.750 Y71.036 E2.12793
G1 X86.794 Y71.389 E2.13718
G1 X86.750 Y71.757 E2.14684
G1 X86.616 Y72.094 E2.15627
G1 X86.403 Y72.388 E2.16572
G1 X86.123 Y72.619 E2.17516
G1 X85.795 Y72.774 E2.18461
G1 X85.438 Y72.842 E2.19406
G1 X85.076 Y72.819 E2.20351
G1 X84.731 Y72.707 E2.21296
G1 X84.424 Y72.512 E2.22240
G1 X84.176 Y72.248 E2.23185
G1 X84.132 Y72.168 E2.23423
G1 X84.786 Y72.408 F12000.000
G1 X84.323 Y71.944 E2.25306 F600.000
G1 X84.142 Y71.134 E2.27694
G1 X85.606 Y72.598 E2.33646
G1 X86.063 Y72.425 E2.35052
G1 X84.320 Y70.682 E2.42141
G1 X84.639 Y70.370 E2.43423
G1 X86.375 Y72.105 E2.50480
G1 X86.548 Y71.649 E2.51885
G1 X85.091 Y70.191 E2.57812
G1 X85.926 Y70.396 E2.60285
G1 X86.338 Y70.808 E2.61960
G1 E0.61960 F1680.00000
G92 E0
G1 X86.350 Y100.001 F12000.000
G1 E2.00000 F1680.00000
G1 X86.101 Y100.049 E2.00658 F600.000
G1 X85.739 Y100.026 E2.01603
G1 X85.394 Y99.914 E2.02548
G1 X85.088 Y99.719 E2.03493
G1 X84.839 Y99.455 E2.04437
G1 X84.664 Y99.137 E2.05382
G1 X84.574 Y98.785 E2.06327
G1 X84.574 Y98.422 E2.07272
G1 X84.664 Y98.070 E2.08216
G1 X84.839 Y97.752 E2.09161
G1 X85.088 Y97.488 E2.10106
G1 X85.394 Y97.293 E2.11051
G1 X85.739 Y97.181 E2.11996
G1 X86.101 Y97.158 E2.12940
G1 X86.451 Y97.225 E2.13865
G1 X86.787 Y97.381 E2.14831 F600.000
G1 X87.066 Y97.612 E2.15774
G1 X87.279 Y97.906 E2.16719
G1 X87.413 Y98.243 E2.17663
G1 X87.458 Y98.596 E2.18588
G1 X87.413 Y98.964 E2.19554
G1 X87.279 Y99.301 E2.20497
G1 X87.066 Y99.595 E2.21442
G1 X86.786 Y99.826 E2.22387
G1 X86.424 Y99.987 E2.23420
G1 X85.449 Y99.615 F12000.000
G1 X84.986 Y99.151 E2.25304 F600.000
G1 X84.806 Y98.341 E2.27691
G1 X86.269 Y99.805 E2.33643
G1 X86.727 Y99.632 E2.35049
G1 X84.984 Y97.889 E2.42138
G1 X85.302 Y97.577 E2.43420
G1 X87.038 Y99.312 E2.50478
G1 X87.211 Y98.856 E2.51883
G1 X85.754 Y97.398 E2.57810
G1 X86.589 Y97.603 E2.60282
G1 X87.001 Y98.015 E2.61957
M104 S188 ; set temperature
G1 E0.61957 F1680.00000
G92 E0
G1 Z0.650 F12000.000
G1 X70.731 Y82.044 F12000.000
G1 E2.00000 F1680.00000
G1 X71.018 Y81.738 E2.00785 F600.000
G1 X71.537 Y81.410 E2.01935
G1 X72.120 Y81.220 E2.03085
G1 X72.733 Y81.181 E2.04235
G1 X72.901 Y81.214 E2.04556
G1 X73.335 Y81.296 E2.05385 F600.000
G1 X73.891 Y81.558 E2.06534
G1 X74.363 Y81.949 E2.07684
G1 X74.724 Y82.445 E2.08834
G1 X74.950 Y83.016 E2.09984
G1 X75.027 Y83.625 E2.11134
G1 X74.950 Y84.233 E2.12283
G1 X74.724 Y84.804 E2.13433
G1 X74.363 Y85.300 E2.14583
G1 X73.891 Y85.691 E2.15733
G1 X73.335 Y85.953 E2.16882
G1 X72.733 Y86.068 E2.18032
G1 X72.120 Y86.029 E2.19182
G1 X71.537 Y85.840 E2.20332
G1 X71.018 Y85.511 E2.21482
G1 X70.598 Y85.063 E2.22631
G1 X70.303 Y84.526 E2.23781
G1 X70.260 Y84.360 E2.24102
G1 X70.150 Y83.931 E2.24931
G1 X70.150 Y83.318 E2.26081
G1 X70.303 Y82.723 E2.27231
G1 X70.598 Y82.186 E2.28380
G1 X70.680 Y82.099 E2.28604
G1 X70.778 Y82.491 F12000.000
G1 X71.407 Y81.861 E2.30374 F600.000
G1 X72.469 Y81.453 F12000.000
G1 X70.398 Y83.524 E2.36195 F600.000
G1 X70.438 Y84.137 E2.37417
G1 X73.089 Y81.486 E2.44868
G1 X73.578 Y81.651 E2.45893
G1 X70.603 Y84.626 E2.54255
G1 X70.858 Y85.024 E2.55195
G1 X73.979 Y81.904 E2.63966
G1 X74.306 Y82.230 E2.64884
G1 X71.185 Y85.351 E2.73656
G1 X71.577 Y85.613 E2.74593
G1 X74.560 Y82.630 E2.82978
G1 X74.724 Y83.119 E2.84004
G1 X72.067 Y85.776 E2.91472
G1 X72.693 Y85.803 E2.92718
G1 X74.749 Y83.748 E2.98496
G1 X74.281 Y84.869 F12000.000
G1 X73.856 Y85.294 E2.99692 F600.000
G1 E0.99692 F1680.00000
G92 E0
G1 X95.419 Y88.642 F12000.000
G1 E2.00000 F1680.00000
G1 X95.124 Y88.105 E2.01149 F600.000
G1 X94.971 Y87.510 E2.02299
G1 X94.971 Y86.897 E2.03448
G1 X95.124 Y86.302 E2.04598
G1 X95.419 Y85.765 E2.05748
G1 X95.839 Y85.317 E2.06898
G1 X96.358 Y84.988 E2.08048
G1 X96.941 Y84.799 E2.09197
G1 X97.554 Y84.760 E2.10347
G1 X97.722 Y84.792 E2.10668
G1 X98.156 Y84.875 E2.11497 F600.000
G1 X98.712 Y85.137 E2.12647
G1 X99.184 Y85.528 E2.13797
G1 X99.545 Y86.024 E2.14946
G1 X99.771 Y86.595 E2.16096
G1 X99.848 Y87.204 E2.17246
G1 X99.771 Y87.812 E2.18396
G1 X99.545 Y88.383 E2.19545
G1 X99.184 Y88.879 E2.20695
G1 X98.712 Y89.270 E2.21845
G1 X98.156 Y89.532 E2.22995
G1 X97.554 Y89.647 E2.24145
G1 X96.941 Y89.608 E2.25294
G1 X96.358 Y89.419 E2.26444
G1 X95.839 Y89.090 E2.27594
G1 X95.470 Y88.697 E2.28604
G1 X95.599 Y86.070 F12000.000
G1 X96.228 Y85.440 E2.30374 F600.000
G1 X97.290 Y85.032 F12000.000
G1 X95.219 Y87.103 E2.36195 F600.000
G1 X95.259 Y87.716 E2.37417
G1 X97.910 Y85.065 E2.44868
G1 X98.399 Y85.230 E2.45893
G1 X95.424 Y88.205 E2.54255
G1 X95.680 Y88.603 E2.55195
G1 X98.800 Y85.483 E2.63966
G1 X99.127 Y85.809 E2.64884
G1 X96.006 Y88.930 E2.73656
G1 X96.398 Y89.192 E2.74593
G1 X99.381 Y86.209 E2.82978
G1 X99.545 Y86.698 E2.84004
G1 X96.888 Y89.355 E2.91472
G1 X97.514 Y89.382 E2.92718
G1 X99.570 Y87.327 E2.98496
G1 X99.102 Y88.448 F12000.000
G1 X98.677 Y88.873 E2.99692 F600.000
G1 E0.99692 F1680.00000
G92 E0
G1 Z0.650 F12000.000
G1 X83.930 Y71.140 F12000.000
G1 E2.00000 F1680.00000
G1 X84.001 Y70.863 E2.00534 F600.000
G1 X84.176 Y70.545 E2.01214
G1 X84.424 Y70.281 E2.01894
G1 X84.731 Y70.086 E2.02574
G1 X85.076 Y69.974 E2.03255
G1 X85.438 Y69.951 E2.03935
G1 X85.775 Y70.016 E2.04577
G1 X86.124 Y70.175 E2.05297 F600.000
G1 X86.403 Y70.405 E2.05974
G1 X86.616 Y70.699 E2.06654
G1 X86.750 Y71.036 E2.07334
G1 X86.795 Y71.396 E2.08014
G1 X86.750 Y71.757 E2.08694
G1 X86.616 Y72.094 E2.09374
G1 X86.403 Y72.388 E2.10054
G1 X86.123 Y72.619 E2.10734
G1 X85.795 Y72.774 E2.11415
G1 X85.438 Y72.842 E2.12095
G1 X85.076 Y72.819 E2.12775
G1 X84.731 Y72.707 E2.13455
G1 X84.424 Y72.512 E2.14135
G1 X84.177 Y72.249 E2.14812
G1 X83.996 Y71.910 E2.15532
G1 X83.911 Y71.578 E2.16174
G1 X83.911 Y71.212 E2.16859
G1 X84.813 Y70.404 F12000.000
G1 X84.342 Y70.875 E2.18411 F600.000
G1 X84.199 Y71.783 E2.20549
G1 X85.737 Y70.245 E2.25610
G1 X86.208 Y70.539 E2.26902
G1 X84.493 Y72.254 E2.32544
G1 X84.965 Y72.547 E2.33837
G1 X86.502 Y71.010 E2.38895
G1 X86.321 Y71.956 E2.41137
G1 X85.895 Y72.382 E2.42537
G1 E0.42537 F1680.00000
G92 E0
G1 X87.454 Y98.636 F12000.000
G1 E2.00000 F1680.00000
G1 X87.413 Y98.964 E2.00619 F600.000
G1 X87.279 Y99.301 E2.01299
G1 X87.066 Y99.595 E2.01980
G1 X86.786 Y99.826 E2.02660
G1 X86.458 Y99.981 E2.03340
G1 X86.101 Y100.049 E2.04020
G1 X85.739 Y100.026 E2.04700
G1 X85.394 Y99.914 E2.05380
G1 X85.088 Y99.719 E2.06060
G1 X84.840 Y99.456 E2.06737
G1 X84.659 Y99.117 E2.07457
G1 X84.574 Y98.785 E2.08099
G1 X84.574 Y98.422 E2.08779
G1 X84.664 Y98.070 E2.09459
G1 X84.839 Y97.752 E2.10140
G1 X85.088 Y97.488 E2.10820
G1 X85.394 Y97.293 E2.11500
G1 X85.739 Y97.181 E2.12180
G1 X86.101 Y97.158 E2.12860
G1 X86.438 Y97.223 E2.13502
G1 X86.788 Y97.382 E2.14222 F600.000
G1 X87.066 Y97.612 E2.14899
G1 X87.279 Y97.906 E2.15579
G1 X87.413 Y98.243 E2.16259
G1 X87.453 Y98.561 E2.16860
G1 X86.558 Y99.589 F12000.000
G1 X86.984 Y99.163 E2.18260 F600.000
G1 X87.165 Y98.217 E2.20501
G1 X85.628 Y99.754 E2.25560
G1 X85.156 Y99.461 E2.26852
G1 X86.871 Y97.746 E2.32495
G1 X86.400 Y97.452 E2.33786
G1 X84.862 Y98.990 E2.38847
G1 X85.005 Y98.082 E2.40985
G1 X85.476 Y97.611 E2.42537
G1 E0.42537 F1680.00000
G92 E0
G1 Z0.950 F12000.000
G1 X75.009 Y83.763 F12000.000
G1 E2.00000 F1680.00000
G1 X74.950 Y84.233 E2.00889 F600.000
G1 X74.724 Y84.804 E2.02039
G1 X74.363 Y85.300 E2.03189
G1 X73.891 Y85.691 E2.04338
G1 X73.335 Y85.953 E2.05488
G1 X72.733 Y86.068 E2.06638
G1 X72.120 Y86.029 E2.07788
G1 X71.537 Y85.840 E2.08937
G1 X71.018 Y85.511 E2.10087
G1 X70.598 Y85.063 E2.11237
G1 X70.303 Y84.526 E2.12387
G1 X70.150 Y83.931 E2.13537
G1 X70.150 Y83.318 E2.14686
G1 X70.303 Y82.723 E2.15836
G1 X70.598 Y82.186 E2.16986
G1 X71.018 Y81.738 E2.18136
G1 X71.537 Y81.410 E2.19286
G1 X72.120 Y81.220 E2.20435
G1 X72.733 Y81.181 E2.21585
G1 X73.001 Y81.233 E2.22097
G1 X73.335 Y81.296 E2.22735 F600.000
G1 X73.891 Y81.558 E2.23885
G1 X74.363 Y81.949 E2.25034
G1 X74.724 Y82.445 E2.26184
G1 X74.950 Y83.016 E2.27334
G1 X75.027 Y83.625 E2.28484
G1 X75.019 Y83.688 E2.28604
G1 X74.281 Y82.380 F12000.000
G1 X73.856 Y81.955 E2.29800 F600.000
G1 X72.693 Y81.446 F12000.000
G1 X74.749 Y83.501 E2.35578 F600.000
G1 X74.724 Y84.130 E2.36828
G1 X72.067 Y81.473 E2.44297
G1 X71.577 Y81.636 E2.45324
G1 X74.560 Y84.619 E2.53708
G1 X74.306 Y85.019 E2.54650
G1 X71.185 Y81.898 E2.63422
G1 X70.859 Y82.225 E2.64340
G1 X73.979 Y85.345 E2.73111
G1 X73.578 Y85.598 E2.74052
G1 X70.603 Y82.623 E2.82414
G1 X70.438 Y83.112 E2.83439
G1 X73.089 Y85.763 E2.90890
G1 X72.469 Y85.796 E2.92124
G1 X70.398 Y83.725 E2.97946
G1 X70.778 Y84.758 F12000.000
G1 X71.407 Y85.388 E2.99716 F600.000
G1 E0.99716 F1680.00000
G92 E0
G1 X97.138 Y89.621 F12000.000
G1 E2.00000 F1680.00000
G1 X96.941 Y89.608 E2.00370 F600.000
G1 X96.358 Y89.419 E2.01520
G1 X95.839 Y89.090 E2.02669
G1 X95.419 Y88.642 E2.03819
G1 X95.124 Y88.105 E2.04969
G1 X94.971 Y87.510 E2.06119
G1 X94.971 Y86.897 E2.07269
G1 X95.124 Y86.302 E2.08418
G1 X95.419 Y85.765 E2.09568
G1 X95.839 Y85.317 E2.10718
G1 X96.358 Y84.988 E2.11868
G1 X96.941 Y84.799 E2.13017
G1 X97.554 Y84.760 E2.14167
G1 X97.822 Y84.811 E2.14679
G1 X98.156 Y84.875 E2.15317 F600.000
G1 X98.712 Y85.137 E2.16467
G1 X99.184 Y85.528 E2.17617
G1 X99.545 Y86.024 E2.18766
G1 X99.771 Y86.595 E2.19916
G1 X99.848 Y87.204 E2.21066
G1 X99.771 Y87.812 E2.22216
G1 X99.545 Y88.383 E2.23366
G1 X99.184 Y88.879 E2.24515
G1 X98.712 Y89.270 E2.25665
G1 X98.156 Y89.532 E2.26815
G1 X97.554 Y89.647 E2.27965
G1 X97.213 Y89.625 E2.28604
G1 X96.228 Y88.967 F12000.000
G1 X95.599 Y88.337 E2.30374 F600.000
G1 X95.219 Y87.304 F12000.000
G1 X97.290 Y89.375 E2.36195 F600.000
G1 X97.910 Y89.342 E2.37429
G1 X95.259 Y86.691 E2.44881
G1 X95.424 Y86.202 E2.45906
G1 X98.399 Y89.177 E2.54267
G1 X98.800 Y88.924 E2.55209
G1 X95.680 Y85.804 E2.63979
G1 X96.006 Y85.477 E2.64898
G1 X99.127 Y88.598 E2.73670
G1 X99.381 Y88.198 E2.74611
G1 X96.398 Y85.215 E2.82996
G1 X96.888 Y85.052 E2.84023
G1 X99.545 Y87.709 E2.91491
G1 X99.570 Y87.080 E2.92742
G1 X97.514 Y85.025 E2.98520
G1 X98.677 Y85.534 F12000.000
G1 X99.102 Y85.959 E2.99716 F600.000
G1 E0.99716 F1680.00000
G92 E0
G1 Z0.950 F12000.000
G1 X84.412 Y70.297 F12000.000
G1 E2.00000 F1680.00000
G1 X84.733 Y70.086 E2.00720 F600.000
G1 X85.076 Y69.974 E2.01396
G1 X85.408 Y69.953 E2.02019
G1 X85.797 Y70.020 E2.02758
G1 X86.123 Y70.174 E2.03434 F600.000
G1 X86.403 Y70.405 E2.04114
G1 X86.616 Y70.699 E2.04794
G1 X86.750 Y71.036 E2.05474
G1 X86.795 Y71.396 E2.06155
G1 X86.750 Y71.757 E2.06835
