; generated by Slic3r 1.2.6 on 2015-05-12 at 01:07:52

; external perimeters extrusion width = 0.50mm
; perimeters extrusion width = 0.50mm
; infill extrusion width = 0.50mm
; solid infill extrusion width = 0.50mm
; top infill extrusion width = 0.50mm

M104 S190 ; set temperature
G28 ; home all axes
G1 Z15 F120 ; lift nozzle
M109 S190 ; wait for temperature to be reached
G21 ; set units to millimeters
G90 ; use absolute coordinates
M82 ; use absolute distances for extrusion
G92 E0
M106 S102
G1 E-2.00000 F1680.00000
G92 E0
G1 Z0.350 F12000.000
G1 X69.179 Y53.646 F12000.000
G1 E2.00000 F1680.00000
G1 X70.751 Y52.022 E2.06363 F1200.000
G1 X71.771 Y51.421 E2.09695
G1 X72.282 Y51.179 E2.11286
G1 X73.440 Y50.763 E2.14751
G1 X73.651 Y50.709 E2.15363
G1 X74.692 Y50.533 E2.18336
G1 X75.452 Y50.468 E2.20484
G1 X76.000 Y50.445 E2.22028
G1 X94.000 Y50.445 E2.72701
G1 X94.548 Y50.468 E2.74244
G1 X95.308 Y50.533 E2.76393 F1200.000
G1 X96.349 Y50.709 E2.79366
G1 X96.560 Y50.763 E2.79978
G1 X97.718 Y51.179 E2.83443
G1 X98.229 Y51.421 E2.85034
G1 X100.072 Y52.729 E2.91397
G1 X100.886 Y53.743 E2.95057
G1 X101.505 Y54.903 E2.98759
G1 X101.571 Y55.065 E2.99251
G1 X102.050 Y57.500 E3.06237
G1 X102.050 Y112.500 E4.61072
G1 X101.571 Y114.935 E4.68058
G1 X101.505 Y115.097 E4.68550
G1 X100.821 Y116.354 E4.72580
G1 X99.248 Y117.978 E4.78943
G1 X98.229 Y118.579 E4.82275
G1 X97.718 Y118.821 E4.83865
G1 X96.560 Y119.237 E4.87330
G1 X96.349 Y119.291 E4.87942
G1 X95.308 Y119.467 E4.90916
G1 X94.548 Y119.532 E4.93064
G1 X94.000 Y119.555 E4.94607
G1 X76.000 Y119.555 E5.45281
G1 X75.452 Y119.532 E5.46824
G1 X74.692 Y119.467 E5.48972
G1 X73.651 Y119.291 E5.51945
G1 X73.440 Y119.237 E5.52558
G1 X72.282 Y118.821 E5.56023
G1 X71.771 Y118.579 E5.57613
G1 X69.928 Y117.271 E5.63976
G1 X69.114 Y116.257 E5.67637
G1 X68.495 Y115.097 E5.71339
G1 X68.429 Y114.935 E5.71830
G1 X67.950 Y112.500 E5.78816
G1 X67.950 Y57.500 E7.33652
G1 X68.429 Y55.065 E7.40638
G1 X68.495 Y54.903 E7.41129
G1 X69.137 Y53.708 E7.44949
G1 E5.44949 F1680.00000
G92 E0
G1 X95.363 Y94.364 F12000.000
G1 E2.00000 F1680.00000
G1 X95.363 Y112.451 E2.47079 F720.000
G1 X95.319 Y112.559 E2.47383
G1 X94.886 Y112.764 E2.48630
G1 X94.719 Y112.806 E2.49080
G1 X93.989 Y112.869 E2.50985
G1 X76.011 Y112.869 E2.97782
G1 X75.281 Y112.806 E2.99687
G1 X75.114 Y112.764 E3.00136
G1 X74.681 Y112.559 E3.01383
G1 X74.637 Y112.451 E3.01688
G1 X74.637 Y57.549 E4.44592
G1 X74.681 Y57.441 E4.44896
G1 X75.114 Y57.236 E4.46143
G1 X75.281 Y57.194 E4.46593
G1 X76.011 Y57.131 E4.48498
G1 X93.989 Y57.131 E4.95295
G1 X94.305 Y57.158 E4.96119
G1 X94.719 Y57.194 E4.97199 F720.000
G1 X94.886 Y57.236 E4.97649
G1 X95.319 Y57.441 E4.98896
G1 X95.363 Y57.549 E4.99201
G1 X95.363 Y94.289 E5.94831
G1 X74.859 Y112.225 F12000.000
G1 X75.092 Y112.458 E5.95695 F1200.000
G1 X75.832 Y112.622 E5.97681
G1 X74.859 Y111.650 E6.01287
G1 X74.859 Y111.075 E6.02795
G1 X76.430 Y112.646 E6.08621
G1 X77.005 Y112.646 E6.10129
G1 X74.859 Y110.500 E6.18087
G1 X74.859 Y109.925 E6.19595
G1 X77.580 Y112.646 E6.29685
G1 X78.155 Y112.646 E6.31193
G1 X74.859 Y109.350 E6.43415
G1 X74.859 Y108.776 E6.44923
G1 X78.730 Y112.646 E6.59277
G1 X79.304 Y112.646 E6.60785
G1 X74.859 Y108.201 E6.77271
G1 X74.859 Y107.626 E6.78779
G1 X79.879 Y112.646 E6.97397
G1 X80.454 Y112.646 E6.98905
G1 X74.859 Y107.051 E7.19656
G1 X74.859 Y106.476 E7.21163
G1 X81.029 Y112.646 E7.44046
G1 X81.604 Y112.646 E7.45554
G1 X74.859 Y105.901 E7.70568
G1 X74.859 Y105.326 E7.72076
G1 X82.179 Y112.646 E7.99223
G1 X82.754 Y112.646 E8.00730
G1 X74.859 Y104.752 E8.30009
G1 X74.859 Y104.177 E8.31517
G1 X83.328 Y112.646 E8.62928
G1 X83.903 Y112.646 E8.64435
G1 X74.859 Y103.602 E8.97978
G1 X74.859 Y103.027 E8.99486
G1 X84.478 Y112.646 E9.35161
G1 X85.053 Y112.646 E9.36669
G1 X74.859 Y102.452 E9.74476
G1 X74.859 Y101.877 E9.75983
G1 X85.628 Y112.646 E10.15922
G1 X86.203 Y112.646 E10.17430
G1 X74.859 Y101.302 E10.59501
G1 X74.859 Y100.728 E10.61009
G1 X86.778 Y112.646 E11.05212
G1 X87.352 Y112.646 E11.06720
G1 X74.859 Y100.153 E11.53055
G1 X74.859 Y99.578 E11.54563
G1 X87.927 Y112.646 E12.03030
G1 X88.502 Y112.646 E12.04538
G1 X74.859 Y99.003 E12.55137
G1 X74.859 Y98.428 E12.56645
G1 X89.077 Y112.646 E13.09376
G1 X89.652 Y112.646 E13.10884
G1 X74.859 Y97.853 E13.65747
G1 X74.859 Y97.279 E13.67255
G1 X90.227 Y112.646 E14.24251
G1 X90.801 Y112.646 E14.25758
G1 X74.859 Y96.704 E14.84886
G1 X74.859 Y96.129 E14.86393
G1 X91.376 Y112.646 E15.47653
G1 X91.951 Y112.646 E15.49161
G1 X74.859 Y95.554 E16.12553
G1 X74.859 Y94.979 E16.14060
G1 X92.526 Y112.646 E16.79584
G1 X93.101 Y112.646 E16.81092
G1 X74.859 Y94.404 E17.48748
G1 X74.859 Y93.829 E17.50255
G1 X93.676 Y112.646 E18.20043
G1 X94.236 Y112.631 E18.21512
G1 X74.859 Y93.255 E18.93377
G1 X74.859 Y92.680 E18.94885
G1 X94.764 Y112.584 E19.68708
G1 X95.141 Y112.386 E19.69824
G1 X74.859 Y92.105 E20.45045
G1 X74.859 Y91.530 E20.46553
G1 X95.141 Y111.811 E21.21774
G1 X95.141 Y111.236 E21.23282
G1 X74.859 Y90.955 E21.98503
G1 X74.859 Y90.380 E22.00010
G1 X95.141 Y110.662 E22.75231
G1 X95.141 Y110.087 E22.76739
G1 X74.859 Y89.805 E23.51960
G1 X74.859 Y89.231 E23.53468
G1 X95.141 Y109.512 E24.28689
G1 X95.141 Y108.937 E24.30196
G1 X74.859 Y88.656 E25.05418
G1 X74.859 Y88.081 E25.06925
G1 X95.141 Y108.362 E25.82146
G1 X95.141 Y107.787 E25.83654
G1 X74.859 Y87.506 E26.58875
G1 X74.859 Y86.931 E26.60383
G1 X95.141 Y107.213 E27.35604
G1 X95.141 Y106.638 E27.37111
G1 X74.859 Y86.356 E28.12332
G1 X74.859 Y85.782 E28.13840
G1 X95.141 Y106.063 E28.89061
G1 X95.141 Y105.488 E28.90569
G1 X74.859 Y85.207 E29.65790
G1 X74.859 Y84.632 E29.67297
G1 X95.141 Y104.913 E30.42519
G1 X95.141 Y104.338 E30.44026
G1 X74.859 Y84.057 E31.19247
G1 X74.859 Y83.482 E31.20755
G1 X95.141 Y103.763 E31.95976
G1 X95.141 Y103.189 E31.97484
G1 X74.859 Y82.907 E32.72705
G1 X74.859 Y82.332 E32.74212
G1 X95.141 Y102.614 E33.49433
G1 X95.141 Y102.039 E33.50941
G1 X74.859 Y81.758 E34.26162
G1 X74.859 Y81.183 E34.27670
G1 X95.141 Y101.464 E35.02891
G1 X95.141 Y100.889 E35.04398
G1 X74.859 Y80.608 E35.79619
G1 X74.859 Y80.033 E35.81127
G1 X95.141 Y100.314 E36.56348
G1 X95.141 Y99.739 E36.57856
G1 X74.859 Y79.458 E37.33077
G1 X74.859 Y78.883 E37.34585
G1 X95.141 Y99.165 E38.09806
G1 X95.141 Y98.590 E38.11313
G1 X74.859 Y78.308 E38.86534
G1 X74.859 Y77.734 E38.88042
G1 X95.141 Y98.015 E39.63263
G1 X95.141 Y97.440 E39.64771
G1 X74.859 Y77.159 E40.39992
G1 X74.859 Y76.584 E40.41499
G1 X95.141 Y96.865 E41.16720
G1 X95.141 Y96.290 E41.18228
G1 X74.859 Y76.009 E41.93449
G1 X74.859 Y75.434 E41.94957
G1 X95.141 Y95.716 E42.70178
G1 X95.141 Y95.141 E42.71686
G1 X74.859 Y74.859 E43.46907
G1 X74.859 Y74.285 E43.48414
G1 X95.141 Y94.566 E44.23635
G1 X95.141 Y93.991 E44.25143
G1 X74.859 Y73.710 E45.00364
G1 X74.859 Y73.135 E45.01872
G1 X95.141 Y93.416 E45.77093
G1 X95.141 Y92.841 E45.78600
G1 X74.859 Y72.560 E46.53821
G1 X74.859 Y71.985 E46.55329
G1 X95.141 Y92.266 E47.30550
G1 X95.141 Y91.692 E47.32058
G1 X74.859 Y71.410 E48.07279
G1 X74.859 Y70.835 E48.08786
G1 X95.141 Y91.117 E48.84008
G1 X95.141 Y90.542 E48.85515
G1 X74.859 Y70.261 E49.60736
G1 X74.859 Y69.686 E49.62244
G1 X95.141 Y89.967 E50.37465
G1 X95.141 Y89.392 E50.38973
G1 X74.859 Y69.111 E51.14194
G1 X74.859 Y68.536 E51.15701
G1 X95.141 Y88.817 E51.90922
G1 X95.141 Y88.242 E51.92430
G1 X74.859 Y67.961 E52.67651
G1 X74.859 Y67.386 E52.69159
G1 X95.141 Y87.668 E53.44380
G1 X95.141 Y87.093 E53.45887
G1 X74.859 Y66.811 E54.21109
G1 X74.859 Y66.237 E54.22616
G1 X95.141 Y86.518 E54.97837
G1 X95.141 Y85.943 E54.99345
G1 X74.859 Y65.662 E55.74566
G1 X74.859 Y65.087 E55.76074
G1 X95.141 Y85.368 E56.51295
G1 X95.141 Y84.793 E56.52802
G1 X74.859 Y64.512 E57.28023
G1 X74.859 Y63.937 E57.29531
G1 X95.141 Y84.219 E58.04752
G1 X95.141 Y83.644 E58.06260
G1 X74.859 Y63.362 E58.81481
G1 X74.859 Y62.788 E58.82988
G1 X95.141 Y83.069 E59.58210
G1 X95.141 Y82.494 E59.59717
G1 X74.859 Y62.213 E60.34938
G1 X74.859 Y61.638 E60.36446
G1 X95.141 Y81.919 E61.11667
G1 X95.141 Y81.344 E61.13175
G1 X74.859 Y61.063 E61.88396
G1 X74.859 Y60.488 E61.89903
G1 X95.141 Y80.769 E62.65124
G1 X95.141 Y80.195 E62.66632
G1 X74.859 Y59.913 E63.41853
G1 X74.859 Y59.338 E63.43361
G1 X95.141 Y79.620 E64.18582
G1 X95.141 Y79.045 E64.20089
G1 X74.859 Y58.764 E64.95311
G1 X74.859 Y58.189 E64.96818
G1 X95.141 Y78.470 E65.72039
G1 X95.141 Y77.895 E65.73547
G1 X74.859 Y57.614 E66.48768
G1 X75.236 Y57.416 E66.49885
G1 X95.141 Y77.320 E67.23707
G1 X95.141 Y76.745 E67.25215
G1 X75.764 Y57.369 E67.97080
G1 X76.324 Y57.354 E67.98549
G1 X95.141 Y76.171 E68.68337
G1 X95.141 Y75.596 E68.69845
G1 X76.899 Y57.354 E69.37501
G1 X77.474 Y57.354 E69.39009
G1 X95.141 Y75.021 E70.04533
G1 X95.141 Y74.446 E70.06040
G1 X78.049 Y57.354 E70.69432
G1 X78.624 Y57.354 E70.70940
G1 X95.141 Y73.871 E71.32199
G1 X95.141 Y73.296 E71.33707
G1 X79.198 Y57.354 E71.92835
G1 X79.773 Y57.354 E71.94342
G1 X95.141 Y72.722 E72.51338
G1 X95.141 Y72.147 E72.52846
G1 X80.348 Y57.354 E73.07710
G1 X80.923 Y57.354 E73.09217
G1 X95.141 Y71.572 E73.61949
G1 X95.141 Y70.997 E73.63456
G1 X81.498 Y57.354 E74.14056
G1 X82.073 Y57.354 E74.15563
G1 X95.141 Y70.422 E74.64031
G1 X95.141 Y69.847 E74.65539
G1 X82.648 Y57.354 E75.11874
G1 X83.222 Y57.354 E75.13382
G1 X95.141 Y69.272 E75.57585
G1 X95.141 Y68.698 E75.59093
G1 X83.797 Y57.354 E76.01164
G1 X84.372 Y57.354 E76.02672
G1 X95.141 Y68.123 E76.42611
G1 X95.141 Y67.548 E76.44118
G1 X84.947 Y57.354 E76.81926
G1 X85.522 Y57.354 E76.83433
G1 X95.141 Y66.973 E77.19109
G1 X95.141 Y66.398 E77.20616
G1 X86.097 Y57.354 E77.54159
G1 X86.672 Y57.354 E77.55667
G1 X95.141 Y65.823 E77.87078
G1 X95.141 Y65.248 E77.88585
G1 X87.246 Y57.354 E78.17864
G1 X87.821 Y57.354 E78.19372
G1 X95.141 Y64.674 E78.46519
G1 X95.141 Y64.099 E78.48027
G1 X88.396 Y57.354 E78.73042
G1 X88.971 Y57.354 E78.74549
G1 X95.141 Y63.524 E78.97432
G1 X95.141 Y62.949 E78.98940
G1 X89.546 Y57.354 E79.19690
G1 X90.121 Y57.354 E79.21198
G1 X95.141 Y62.374 E79.39817
G1 X95.141 Y61.799 E79.41324
G1 X90.695 Y57.354 E79.57811
G1 X91.270 Y57.354 E79.59318
G1 X95.141 Y61.225 E79.73673
G1 X95.141 Y60.650 E79.75181
G1 X91.845 Y57.354 E79.87403
G1 X92.420 Y57.354 E79.88911
G1 X95.141 Y60.075 E79.99001
G1 X95.141 Y59.500 E80.00509
G1 X92.995 Y57.354 E80.08467
G1 X93.570 Y57.354 E80.09975
G1 X95.141 Y58.925 E80.15801
G1 X95.141 Y58.350 E80.17309
G1 X94.168 Y57.378 E80.20915
G1 X94.908 Y57.542 E80.22902
G1 X95.141 Y57.775 E80.23766
M104 S188 ; set temperature
G1 E78.23766 F1680.00000
G92 E0
G1 Z0.650 F12000.000
G1 X73.663 Y75.073 F12000.000
G1 E2.00000 F1680.00000
M106 S255
G1 X73.663 Y57.536 E2.49369 F2400.000
G1 X73.713 Y57.369 E2.49861
G1 X73.863 Y57.209 E2.50479
G1 X74.272 Y57.031 E2.51734
G1 X74.496 Y56.975 E2.52386
M106 S102
G1 X75.308 Y56.861 E2.53921 F1440.000
G1 X76.003 Y56.843 E2.55225
G1 X94.186 Y56.848 E2.89293
G1 X94.960 Y56.883 E2.90745
G1 X95.504 Y56.975 E2.91779
M106 S255
G1 X95.728 Y57.031 E2.92431 F2400.000
G1 X96.137 Y57.209 E2.93686
G1 X96.287 Y57.369 E2.94303
G1 X96.337 Y57.536 E2.94795
G1 X96.337 Y112.464 E4.49426
G1 X96.287 Y112.631 E4.49918
G1 X96.137 Y112.791 E4.50536
G1 X95.728 Y112.969 E4.51790
G1 X95.504 Y113.025 E4.52442
M106 S102
G1 X94.960 Y113.117 E4.53475 F1440.000
G1 X93.995 Y113.157 E4.55286
G1 X76.005 Y113.157 E4.88993
G1 X75.040 Y113.117 E4.90804
G1 X74.496 Y113.025 E4.91836
M106 S255
G1 X74.272 Y112.969 E4.92488 F2400.000
G1 X73.863 Y112.791 E4.93743
G1 X73.713 Y112.631 E4.94361
G1 X73.663 Y112.464 E4.94853
G1 X73.663 Y75.148 E5.99903
M106 S102
G1 X73.859 Y60.745 F12000.000
M106 S255
G1 X74.216 Y60.745 E6.01078 F2400.000
G1 X74.768 Y60.155 E6.03733
G1 X73.859 Y60.155 E6.06721
G1 X73.859 Y59.564 E6.08661
G1 X75.320 Y59.564 E6.13462
G1 X75.871 Y58.974 E6.16118
G1 X73.859 Y58.974 E6.22733
G1 X73.859 Y58.384 E6.24673
G1 X76.423 Y58.384 E6.33100
G1 X76.649 Y57.793 E6.35178
G1 X73.859 Y57.793 E6.44349
M106 S102
G1 X75.155 Y57.203 F12000.000
M106 S255
G1 X76.478 Y57.203 E6.48697 F2400.000
M106 S102
G1 X76.858 Y57.091 F12000.000
G1 X76.637 Y57.312 E6.49285 F2400.000
G1 X76.776 Y57.791 E6.50224
G1 X77.476 Y57.091 E6.52086
G1 X78.094 Y57.091 E6.53249
G1 X76.669 Y58.517 E6.57040
G1 X74.912 Y60.892 F12000.000
G1 X78.713 Y57.091 E6.67150 F2400.000
G1 X79.331 Y57.092 E6.68312
G1 X75.531 Y60.892 E6.78421
G1 X76.149 Y60.892 E6.79584
G1 X79.949 Y57.092 E6.89692
G1 X80.567 Y57.092 E6.90855
G1 X76.767 Y60.892 E7.00963
G1 X77.386 Y60.892 E7.02126
G1 X81.186 Y57.092 E7.12234
G1 X81.804 Y57.092 E7.13396
G1 X77.492 Y61.404 E7.24866
G1 X77.492 Y62.023 E7.26029
G1 X82.422 Y57.093 E7.39142
G1 X83.040 Y57.093 E7.40305
G1 X77.492 Y62.641 E7.55063
G1 X77.492 Y63.259 E7.56226
G1 X83.658 Y57.093 E7.72629
G1 X84.277 Y57.093 E7.73792
G1 X77.492 Y63.878 E7.91839
G1 X77.492 Y64.496 E7.93002
G1 X84.895 Y57.093 E8.12693
G1 X85.513 Y57.093 E8.13856
G1 X77.492 Y65.115 E8.35192
G1 X77.492 Y65.733 E8.36355
G1 X86.131 Y57.094 E8.59335
G1 X86.750 Y57.094 E8.60498
G1 X77.492 Y66.351 E8.85123
G1 X77.492 Y66.970 E8.86286
G1 X87.368 Y57.094 E9.12555
G1 X87.986 Y57.094 E9.13718
G1 X77.492 Y67.588 E9.41632
G1 X77.492 Y68.207 E9.42795
G1 X88.604 Y57.094 E9.72353
G1 X89.222 Y57.094 E9.73516
G1 X77.492 Y68.825 E10.04718
G1 X77.492 Y69.443 E10.05881
G1 X89.841 Y57.095 E10.38728
G1 X90.459 Y57.095 E10.39891
G1 X77.492 Y70.062 E10.74382
G1 X77.492 Y70.680 E10.75545
G1 X91.077 Y57.095 E11.11681
G1 X91.695 Y57.095 E11.12844
G1 X77.492 Y71.299 E11.50624
G1 X77.492 Y71.917 E11.51787
G1 X92.314 Y57.095 E11.91212
G1 X92.932 Y57.096 E11.92375
G1 X77.492 Y72.535 E12.33444
G1 X77.492 Y73.154 E12.34607
G1 X93.253 Y57.393 E12.76530
G1 X93.138 Y58.126 E12.77925
G1 X77.492 Y73.772 E13.19544
G1 X77.492 Y74.391 E13.20707
G1 X93.437 Y58.445 E13.63120
G1 X93.736 Y58.765 E13.63943
G1 X77.492 Y75.009 E14.07151
G1 X77.492 Y75.627 E14.08314
G1 X94.035 Y59.085 E14.52316
G1 X92.846 Y60.892 F12000.000
G1 X94.333 Y59.404 E14.56273 F2400.000
G1 X94.632 Y59.724 E14.57096
G1 X93.464 Y60.892 E14.60203
G1 X94.083 Y60.892 E14.61366
G1 X94.931 Y60.044 E14.63622
G1 X95.230 Y60.364 E14.64445
G1 X94.701 Y60.892 E14.65851
G1 X95.319 Y60.892 E14.67014
G1 X95.528 Y60.683 E14.67569
G1 E12.67569 F1680.00000
G92 E0
G1 X92.508 Y61.230 F12000.000
G1 E2.00000 F1680.00000
G1 X77.492 Y76.246 E2.39942 F2400.000
G1 X77.492 Y76.864 E2.41105
G1 X92.508 Y61.848 E2.81047
G1 X92.508 Y62.467 E2.82210
G1 X77.492 Y77.483 E3.22152
G1 X77.492 Y78.101 E3.23315
G1 X92.508 Y63.085 E3.63257
G1 X92.508 Y63.703 E3.64420
G1 X77.492 Y78.720 E4.04362
G1 X77.492 Y79.338 E4.05525
G1 X92.508 Y64.322 E4.45467
G1 X92.508 Y64.940 E4.46630
G1 X77.492 Y79.956 E4.86572
G1 X77.492 Y80.575 E4.87735
G1 X92.508 Y65.559 E5.27677
G1 X92.508 Y66.177 E5.28840
G1 X77.492 Y81.193 E5.68782
G1 X77.492 Y81.812 E5.69945
G1 X92.508 Y66.795 E6.09887
G1 X92.508 Y67.414 E6.11050
G1 X77.492 Y82.430 E6.50992
G1 X77.492 Y83.048 E6.52155
G1 X92.508 Y68.032 E6.92097
G1 X92.508 Y68.651 E6.93260
G1 X77.492 Y83.667 E7.33202
G1 X77.492 Y84.285 E7.34365
G1 X92.508 Y69.269 E7.74307
G1 X92.508 Y69.887 E7.75470
G1 X77.492 Y84.904 E8.15412
G1 X77.492 Y85.522 E8.16575
G1 X92.508 Y70.506 E8.56517
G1 X92.508 Y71.124 E8.57680
G1 X77.492 Y86.140 E8.97622
G1 X77.492 Y86.759 E8.98785
G1 X92.508 Y71.743 E9.38727
G1 X92.508 Y72.361 E9.39890
G1 X77.492 Y87.377 E9.79832
G1 X77.492 Y87.996 E9.80995
G1 X92.508 Y72.979 E10.20937
G1 X92.508 Y73.598 E10.22100
G1 X77.492 Y88.614 E10.62042
G1 X77.492 Y89.232 E10.63205
G1 X92.508 Y74.216 E11.03147
G1 X92.508 Y74.835 E11.04310
G1 X77.492 Y89.851 E11.44252
G1 X77.492 Y90.469 E11.45415
G1 X92.508 Y75.453 E11.85357
G1 X92.508 Y76.071 E11.86520
G1 X77.492 Y91.088 E12.26462
G1 X77.492 Y91.706 E12.27625
G1 X92.508 Y76.690 E12.67567
G1 X92.508 Y77.308 E12.68730
G1 X77.492 Y92.324 E13.08672
G1 X77.492 Y92.943 E13.09835
G1 X92.508 Y77.927 E13.49777
G1 X92.508 Y78.545 E13.50940
G1 X77.492 Y93.561 E13.90882
G1 X77.492 Y94.180 E13.92045
G1 X92.508 Y79.163 E14.31987
G1 X92.508 Y79.782 E14.33150
G1 X77.492 Y94.798 E14.73092
G1 X77.492 Y95.416 E14.74255
G1 X92.508 Y80.400 E15.14197
G1 X92.508 Y81.019 E15.15360
G1 X77.492 Y96.035 E15.55302
